!!!!SEGMENT: pl-wru--50044-muz--005_buchner-philipp-friedrich--plectrum-musicum-sonata-v.krn
!!!cenid: 16xx:1806
!!!COM: Buchner, Philipp Friedrich
!!!COM-rismID: pe30013776
!!!CDT:
!!!CNT:
!!!GTL: Plectrum musicum
!!!OTL: Sonata V
!!!PDT: 1662
!!!AGN:
!!!SMS-siglum: PL-WRu
!!!SMS-shelfmark: 50044 Muz.
!!!SMS-shelfwork: 005 G
!!!SMS-variant:
!!!SMS-altvar:
!!!NIFC-rismSourceID: 990007465
!!!NIFC-rismChildID: 990007465
!!!NIFC-islandoraID: none
!!!URL-pdf-islandora:
!!!URL-scan: https://www.bibliotekacyfrowa.pl/dlibra/doccontent?id=116 @EN{Scan on Digital Library of University of Wroclaw} @PL{Skany w portalu Biblioteka Cyfrowa Uniwersytetu Wrocławskiego}
!!!ONB-nifc: UWAGA: Violino I: s. 6-8, Viola da gamba: s. 43-44, Bassus: s. 68-69, Bassus continuus: s. 83-84
!!!AIN: 1 violb 1 violn
!!!key: d
**kern	**fba	**kern	**fba	**kern	**dynam	**kern	**dynam
*part4	*part4	*part3	*part3	*part2	*part2	*part1	*part1
*staff4	*	*staff3	*	*staff2	*	*staff1	*
*I"Bassus continuo	*	*I"Bassus	*	*I"Viola da gamba	*	*I"VIOLINO I.	*
*I'bc	*	*I'b	*	*I'vla da g.	*	*I'vl I	*
*	*	*	*	*ICstr	*	*ICstr	*
*	*	*	*	*Iviolb	*	*Ivioln	*
*IGcont	*	*IGcont	*	*	*	*	*
*clefC4	*	*clefC4	*	*clefC4	*	*clefG2	*
*k[]	*	*k[]	*	*k[]	*	*k[]	*
*d:	*	*d:	*	*d:	*	*d:	*
*M2/2	*	*M2/2	*	*M2/2	*	*M2/2	*
*met(C|)	*	*met(C|)	*	*met(C|)	*	*met(C|)	*
=1-	=1-	=1-	=1-	=1-	=1-	=1-	=1-
!LO:TX:b:t=Adagio.	!	!LO:TX:b:t=Adagio.	!	!	!	!LO:TX:b:t=adagio.	!
[1d	.	[1d	.	2r	.	2.dd\	.
!	!	!	!	!LO:TX:b:t=Adagio.	!	!	!
.	.	.	.	2.d\	.	.	.
.	.	.	.	.	.	4dd\	.
=2-	=2-	=2-	=2-	=2-	=2-	=2-	=2-
2d\]	2	2d\]	2	.	.	1ee	.
.	.	.	.	4d\	.	.	.
2c\	.	2c\	.	4.c\	.	.	.
.	.	.	.	16d\	.	.	.
!	!	!	!	!LO:TX:t=P:problem:kreska pseudotaktowa	!	!	!
.	.	.	.	16c\	.	.	.
=3-	=3-	=3-	=3-	=3-	=3-	=3-	=3-
1B-X	5:6	1B-X	5:6	2.B-X\	.	4.ff\	.
.	.	.	.	.	.	16ee\	.
.	.	.	.	.	.	16ff\	.
.	.	.	.	.	.	2gg\	.
.	.	.	.	8c\	.	.	.
.	.	.	.	8B-\	.	.	.
=4-	=4-	=4-	=4-	=4-	=4-	=4-	=4-
2.A/	#	2.A/	#	4A/	.	8r	.
.	.	.	.	.	.	8gg\	.
.	.	.	.	4.A/	.	8ee\	.
.	.	.	.	.	.	8ff\	.
!	!	!	!	!	!	!LO:TX:t=P:problem:kreska pseudotaktowa	!
.	.	.	.	.	.	2cc#X\	.
.	.	.	.	16G/	.	.	.
.	.	.	.	16F/	.	.	.
4E/	#	4E/	#	8E/	.	.	.
.	.	.	.	16F/	.	.	.
!	!	!	!	!LO:TX:t=P:problem:kreska pseudotaktowa	!	!	!
.	.	.	.	16G/	.	.	.
=5-	=5-	=5-	=5-	=5-	=5-	=5-	=5-
2.F/	6	2.F/	6	2.F/	.	4r	.
.	.	.	.	.	.	4.dd\	.
.	.	.	.	.	.	16ccny\	.
.	.	.	.	.	.	16b\	.
!LO:TX:t=P:problem:kreska pseudotaktowa	!	!LO:TX:t=P:problem:kreska pseudotaktowa	!	!	!	!	!
4F#X/	6:5	4F#X/	6:5	4F#X/	.	8a/	.
.	.	.	.	.	.	16b/	.
!	!	!	!	!	!	!LO:TX:t=P:problem:kreska pseudotaktowa	!
.	.	.	.	.	.	16cc\	.
=6-	=6-	=6-	=6-	=6-	=6-	=6-	=6-
2G/	-	2G/	-	2G/	.	4.b-X/	.
.	.	.	.	.	.	8a/	.
2A/	.	2A/	.	2A/	.	1a	.
=7-	=7-	=7-	=7-	=7-	=7-	=7-	=7-
1B-X	7:6	1B-X	7:6	1B-X	.	.	.
.	.	.	.	.	.	2g/	.
=8-	=8-	=8-	=8-	=8-	=8-	=8-	=8-
!LO:TX:t=P:problem:kreska pseudotaktowa	!	!LO:TX:t=P:problem:kreska pseudotaktowa	!	!	!	!	!
1A	.	1A	.	1A	.	2a/	.
.	.	.	.	.	.	4r	.
.	.	.	.	.	.	4.aa\	.
=9-	=9-	=9-	=9-	=9-	=9-	=9-	=9-
2c#X\	6	2c#X\	6	2r	.	.	.
.	.	.	.	.	.	16gg\	.
.	.	.	.	.	.	16ff\	.
.	.	.	.	.	.	8ee\	.
.	.	.	.	.	.	16ff\	.
.	.	.	.	.	.	16gg\	.
2d\	-	2d\	-	4r	.	2ff\	.
.	.	.	.	4.d\	.	.	.
*	*	*	*	*	*	*custos:ff	*
!	!	!	!	!	!	!LO:LB:g=original	!
=10-	=10-	=10-	=10-	=10-	=10-	=10-	=10-
2A/	5:6 4:3	2A/	5:6 4:3	.	.	4r	.
.	.	.	.	16c\	.	.	.
.	.	.	.	16Bny\	.	.	.
.	.	.	.	8A/	.	4.ff\	.
.	.	.	.	16B\	.	.	.
.	.	.	.	16c\	.	.	.
4.B-X\	.	4.B-X\	.	4.B-X\	.	.	.
.	.	.	.	.	.	16ee\	.
.	.	.	.	.	.	16ff\	.
!	!	!	!	!	!	!LO:TX:t=P:problem:kreska pseudotaktowa	!
.	.	.	.	.	.	4dd\	.
*custos:A	*	*custos:A	*	*	*	*	*
!LO:LB:g=original	!	!LO:LB:g=original	!	!	!	!	!
!LO:TX:t=P:problem:kreska pseudotaktowa	!	!LO:TX:t=P:problem:kreska pseudotaktowa	!	!	!	!	!
8A/	.	8A/	.	16A/	.	.	.
.	.	.	.	16B-\	.	.	.
*	*	*	*	*custos:G	*	*	*
!	!	!	!	!LO:LB:g=original	!	!	!
=11-	=11-	=11-	=11-	=11-	=11-	=11-	=11-
4G/	6	4G/	6	4G/	.	4.ee\	.
4.A/	.	4.A/	.	4.A/	.	.	.
.	.	.	.	.	.	16dd\	.
.	.	.	.	.	.	16ee\	.
.	.	.	.	.	.	4cc\	.
8G/	.	8G/	.	16G/	.	.	.
.	.	.	.	16A/	.	.	.
!LO:TX:t=P:problem:kreska pseudotaktowa	!	!LO:TX:t=P:problem:kreska pseudotaktowa	!	!LO:TX:t=P:problem:kreska pseudotaktowa	!	!	!
4Fny/	6	4Fny/	6	4Fny/	.	4.dd\	.
=12-	=12-	=12-	=12-	=12-	=12-	=12-	=12-
2E/	7:6	2E/	7:6	4E/	.	.	.
.	.	.	.	.	.	8g/	.
.	.	.	.	16E/	.	2cc\	.
.	.	.	.	16E/	.	.	.
.	.	.	.	16G/	.	.	.
.	.	.	.	16E/	.	.	.
2D/	7:6	2D/	7:6	4D/	.	.	.
.	.	.	.	16D/	.	[4b-X/	.
.	.	.	.	16D/	.	.	.
.	.	.	.	16F/	.	.	.
.	.	.	.	16D/	.	.	.
=13-	=13-	=13-	=13-	=13-	=13-	=13-	=13-
4G/	-	4G/	-	16G/	.	16b-/]	.
.	.	.	.	16G/	.	16b-/	.
.	.	.	.	16B-X\	.	16dd\	.
.	.	.	.	16G/	.	16b-X/	.
4D/	4	4D/	4	2d\	.	16f/	.
.	.	.	.	.	.	16f/	.
.	.	.	.	.	.	16a/	.
.	.	.	.	.	.	16f/	.
2A/	#	2A/	#	.	.	2e/	.
.	.	.	.	4c#X\	.	.	.
=14-	=14-	=14-	=14-	=14-	=14-	=14-	=14-
!	!	!	!	!LO:TX:t=P:problem:kreska pseudotaktowa	!	!LO:TX:t=P:problem:kreska pseudotaktowa	!
1D	.	1D	.	1d	.	1d	.
*clefF4	*	*clefF4	*	*	*	*	*
=15-	=15-	=15-	=15-	=15-	=15-	=15-	=15-
!LO:TX:b:t=allegro.	!	!LO:TX:b:t=allegro.	!	!LO:TX:b:t=Allegro.	!	!	!
[2D/	.	[2D/	.	0r	.	8r	.
!	!	!	!	!	!	!LO:TX:b:t=allegro.	!
.	.	.	.	.	.	16aa\	.
.	.	.	.	.	.	16gg\	.
.	.	.	.	.	.	16ff\	.
.	.	.	.	.	.	16gg\	.
.	.	.	.	.	.	16ff\	.
.	.	.	.	.	.	16gg\	.
2D/]	6:5	2D/]	6:5	.	.	16ff\	.
.	.	.	.	.	.	16ee\	.
.	.	.	.	.	.	16dd\	.
.	.	.	.	.	.	16cc\	.
.	.	.	.	.	.	16b-X/	.
.	.	.	.	.	.	16a/	.
.	.	.	.	.	.	16g/	.
.	.	.	.	.	.	16f/	.
*	*	*	*	*	*	*custos:e	*
!	!	!	!	!	!	!LO:LB:g=original	!
=16-	=16-	=16-	=16-	=16-	=16-	=16-	=16-
[2C/	.	[2C/	.	.	.	8e/	.
.	.	.	.	.	.	16gg\	.
.	.	.	.	.	.	16ff\	.
.	.	.	.	.	.	16ee\	.
.	.	.	.	.	.	16gg\	.
.	.	.	.	.	.	16ff\	.
.	.	.	.	.	.	16gg\	.
2C/]	6:5	2C/]	6:5	.	.	16ee\	.
.	.	.	.	.	.	16dd\	.
.	.	.	.	.	.	16cc\	.
.	.	.	.	.	.	16bny\	.
.	.	.	.	.	.	16a/	.
.	.	.	.	.	.	16g/	.
.	.	.	.	.	.	16f/	.
!	!	!	!	!	!	!LO:TX:t=P:problem:kreska pseudotaktowa	!
.	.	.	.	.	.	16e/	.
*custos:BB-	*	*custos:BB-	*	*	*	*	*
!LO:LB:g=original	!	!LO:LB:g=original	!	!	!	!	!
=17-	=17-	=17-	=17-	=17-	=17-	=17-	=17-
[2BB-X/	.	[2BB-X/	.	1r	.	8d/	.
.	.	.	.	.	.	16ff\	.
.	.	.	.	.	.	16ee\	.
.	.	.	.	.	.	16dd\	.
.	.	.	.	.	.	16ff\	.
.	.	.	.	.	.	16ee\	.
.	.	.	.	.	.	16ff\	.
2BB-/]	5:6	2BB-/]	5:6	.	.	16dd\	.
.	.	.	.	.	.	16cc\	.
.	.	.	.	.	.	16b-X/	.
.	.	.	.	.	.	16a/	.
.	.	.	.	.	.	16g/	.
.	.	.	.	.	.	16f/	.
.	.	.	.	.	.	16e/	.
.	.	.	.	.	.	16d/	.
=18-	=18-	=18-	=18-	=18-	=18-	=18-	=18-
!LO:TX:t=P:problem:kreska pseudotaktowa	!	!LO:TX:t=P:problem:kreska pseudotaktowa	!	!	!	!	!
1AA	5:6:5 #:5#r	1AA	5:6:5 #:5#r	2r	.	8c#X/	.
.	.	.	.	.	.	16aa\	.
.	.	.	.	.	.	16ee\	.
.	.	.	.	.	.	8ff\	.
.	.	.	.	.	.	16ff\	.
.	.	.	.	.	.	16dd\	.
.	.	.	.	8r	.	2ee\	.
.	.	.	.	8A/	.	.	.
.	.	.	.	8.A/	.	.	.
!	!	!	!	!LO:TX:t=P:problem:kreska pseudotaktowa	!	!	!
.	.	.	.	16E/	.	.	.
=19-	=19-	=19-	=19-	=19-	=19-	=19-	=19-
4D/	.	4D/	.	8F#X/	.	2dd\	.
.	.	.	.	8d\	.	.	.
4FF#X/	.	4FF#X/	.	8.d\	.	.	.
.	.	.	.	16A/	.	.	.
8GG/	.	8GG/	.	4Bny\	.	2r	.
8G\	.	8G\	.	.	.	.	.
8.G\	.	8.G\	.	4r	.	.	.
16D/	.	16D/	.	.	.	.	.
*	*	*	*	*	*	*custos:b	*
!	!	!	!	!	!	!LO:LB:g=original	!
=20-	=20-	=20-	=20-	=20-	=20-	=20-	=20-
2E\	.	2E\	.	8r	.	1r	.
.	.	.	.	8cny\	.	.	.
.	.	.	.	8.c\	.	.	.
.	.	.	.	16G/	.	.	.
8r	.	8r	.	4A/	.	.	.
8F\	.	8F\	.	.	.	.	.
8.F\	.	8.F\	.	4r	.	.	.
!LO:TX:t=P:problem:kreska pseudotaktowa	!	!LO:TX:t=P:problem:kreska pseudotaktowa	!	!	!	!	!
16C/	.	16C/	.	.	.	.	.
*	*	*	*	*custos:B	*	*	*
!	!	!	!	!LO:LB:g=original	!	!	!
=21-	=21-	=21-	=21-	=21-	=21-	=21-	=21-
[2D/	6	[2D/	6	8r	.	2r	.
.	.	.	.	8B\	.	.	.
.	.	.	.	8.B\	.	.	.
.	.	.	.	16F#X/	.	.	.
4D/]	6:4	4D/]	6:4	4G#X/	.	16r	.
.	.	.	.	.	.	16bny/	.
.	.	.	.	.	.	16b/	.
.	.	.	.	.	.	16b/	.
4C/	6	4C/	6	4.A/	.	16e/	.
.	.	.	.	.	.	16a/	.
.	.	.	.	.	.	16a/	.
!	!	!	!	!	!	!LO:TX:t=P:problem:kreska pseudotaktowa	!
.	.	.	.	.	.	16a/	.
=22-	=22-	=22-	=22-	=22-	=22-	=22-	=22-
2BBny/	7:6	2BBny/	7:6	.	.	16d/	.
.	.	.	.	.	.	32e/	.
.	.	.	.	.	.	32f#X/	.
.	.	.	.	8A/	.	32g/	.
.	.	.	.	.	.	32a/	.
.	.	.	.	.	.	32b/	.
.	.	.	.	.	.	32cc\	.
.	.	.	.	4G#X/	.	16dd\	.
.	.	.	.	.	.	16cc\	.
.	.	.	.	.	.	16dd\	.
.	.	.	.	.	.	16b/	.
4AA/	#	4AA/	#	8A/	.	4cc#X\	.
.	.	.	.	8a\	.	.	.
!LO:TX:t=P:problem:kreska pseudotaktowa	!	!LO:TX:t=P:problem:kreska pseudotaktowa	!	!	!	!LO:TX:t=P:problem:kreska pseudotaktowa	!
4C#X/	6	4C#X/	6	8.a\	.	4r	.
.	.	.	.	16e\	.	.	.
=23-	=23-	=23-	=23-	=23-	=23-	=23-	=23-
4D/	#	4D/	#	4f#X\	.	8r	.
.	.	.	.	.	.	8dd\	.
4FF#X/	6	4FF#X/	6	4r	.	8.dd\	.
.	.	.	.	.	.	16a/	.
4GG/	.	4GG/	.	2r	.	8b\	.
.	.	.	.	.	.	8gg\	.
4BB/	6	4BB/	6	.	.	8.aa\	.
!	!	!	!	!	!	!LO:TX:t=P:problem:kreska pseudotaktowa	!
.	.	.	.	.	.	16dd\	.
=24-	=24-	=24-	=24-	=24-	=24-	=24-	=24-
8Cny/	6	8Cny/	6	1r	.	4ee\	.
8cny\	.	8cny\	.	.	.	.	.
8.c\	.	8.c\	.	.	.	4r	.
16G\	.	16G\	.	.	.	.	.
!LO:TX:t=P:problem:kreska pseudotaktowa	!	!LO:TX:t=P:problem:kreska pseudotaktowa	!	!	!	!	!
2A\	.	2A\	.	.	.	8r	.
.	.	.	.	.	.	8ff\	.
.	.	.	.	.	.	8.ff\	.
.	.	.	.	.	.	16ccny\	.
*	*	*	*	*	*	*custos:dd	*
!	!	!	!	!	!	!LO:LB:g=original	!
=25-	=25-	=25-	=25-	=25-	=25-	=25-	=25-
8r	.	8r	.	1r	.	4dd\	.
8B-X\	.	8B-X\	.	.	.	.	.
8.B-\	.	8.B-\	.	.	.	4r	.
16F\	.	16F\	.	.	.	.	.
2G\	6	2G\	6	.	.	8r	.
.	.	.	.	.	.	8ee\	.
.	.	.	.	.	.	8.ee\	.
!	!	!	!	!	!	!LO:TX:t=P:problem:kreska pseudotaktowa	!
.	.	.	.	.	.	16b/	.
=26-	=26-	=26-	=26-	=26-	=26-	=26-	=26-
4G\	6 4	4G\	6 4	16r	.	4cc#X\	.
.	.	.	.	16e\	.	.	.
.	.	.	.	16e\	.	.	.
.	.	.	.	16e\	.	.	.
4F\	6	4F\	6	16A/	.	4.dd\	.
.	.	.	.	16d\	.	.	.
.	.	.	.	16d\	.	.	.
.	.	.	.	16d\	.	.	.
*custos:E	*	*custos:E	*	*	*	*	*
!LO:LB:g=original	!	!LO:LB:g=original	!	!	!	!	!
2E\	7:6 #	2E\	7:6 #	16Gny/	.	.	.
.	.	.	.	32A/	.	.	.
.	.	.	.	32B\	.	.	.
.	.	.	.	32c\	.	8dd\	.
.	.	.	.	32d\	.	.	.
.	.	.	.	32e\	.	.	.
.	.	.	.	32fny\	.	.	.
.	.	.	.	16g\	.	4cc#X\	.
.	.	.	.	16f#X\	.	.	.
.	.	.	.	16g\	.	.	.
!	!	!	!	!LO:TX:t=P:problem:kreska pseudotaktowa	!	!	!
.	.	.	.	16e\	.	.	.
=27-	=27-	=27-	=27-	=27-	=27-	=27-	=27-
4D/	#	4D/	#	8f#X\	.	4dd\	.
.	.	.	.	8d\	.	.	.
4F#X\	6	4F#X\	6	8.d\	.	4r	.
.	.	.	.	16A/	.	.	.
*	*	*	*	*custos:B	*	*	*
!	!	!	!	!LO:LB:g=original	!	!	!
4G\	.	4G\	.	4B\	.	8r	.
.	.	.	.	.	.	8gg\	.
!LO:TX:t=P:problem:kreska pseudotaktowa	!	!LO:TX:t=P:problem:kreska pseudotaktowa	!	!	!	!	!
4BB/	6	4BB/	6	4r	.	8.gg\	.
!	!	!	!	!	!	!LO:TX:t=P:problem:kreska pseudotaktowa	!
.	.	.	.	.	.	16dd\	.
=28-	=28-	=28-	=28-	=28-	=28-	=28-	=28-
4C/	.	4C/	.	8r	.	4ee\	.
.	.	.	.	8c\	.	.	.
4E\	6	4E\	6	8.c\	.	4r	.
.	.	.	.	16G/	.	.	.
4Fny\	.	4Fny\	.	4A/	.	8r	.
.	.	.	.	.	.	8ff\	.
4AA/	6	4AA/	6	4r	.	8.ff\	.
!	!	!	!	!	!	!LO:TX:t=P:problem:kreska pseudotaktowa	!
.	.	.	.	.	.	16ccny\	.
=29-	=29-	=29-	=29-	=29-	=29-	=29-	=29-
4BB-X/	.	4BB-X/	.	8r	.	8dd\	.
.	.	.	.	8B-X\	.	8dd\	.
4D/	6:5 #	4D/	6:5 #	8.B-\	.	8.dd\	.
.	.	.	.	16F#X/	.	16a/	.
4GG/	.	4GG/	.	4G/	.	8b/	.
.	.	.	.	.	.	8ee\	.
!LO:TX:t=P:problem:kreska pseudotaktowa	!	!LO:TX:t=P:problem:kreska pseudotaktowa	!	!LO:TX:t=P:problem:kreska pseudotaktowa	!	!	!
4GG#X/	.	4GG#X/	.	4r	.	8.ee\	.
.	.	.	.	.	.	16b/	.
=30-	=30-	=30-	=30-	=30-	=30-	=30-	=30-
[2AA/	.	[2AA/	.	8r	.	4cc\	.
.	.	.	.	16e\	.	.	.
.	.	.	.	16d\	.	.	.
.	.	.	.	16c\	.	4r	.
.	.	.	.	16e\	.	.	.
.	.	.	.	16d\	.	.	.
.	.	.	.	16e\	.	.	.
2AA/]	5:6	2AA/]	5:6	16c\	.	2r	.
.	.	.	.	16Bny\	.	.	.
.	.	.	.	16A/	.	.	.
.	.	.	.	16G/	.	.	.
.	.	.	.	16Fny/	.	.	.
.	.	.	.	16E/	.	.	.
.	.	.	.	16D/	.	.	.
.	.	.	.	16C/	.	.	.
*	*	*	*	*clefF4	*	*custos:ee	*
!	!	!	!	!	!	!LO:PB:g=original	!
=31-	=31-	=31-	=31-	=31-	=31-	=31-	=31-
[2GGny/	.	[2GGny/	.	8BB/	ff	0r	.
.	.	.	.	16d\	.	.	.
.	.	.	.	16c\	.	.	.
.	.	.	.	16B\	.	.	.
.	.	.	.	16d\	.	.	.
.	.	.	.	16c\	.	.	.
.	.	.	.	16d\	.	.	.
*	*	*	*	*custos:B	*	*	*
!	!	!	!	!LO:LB:g=original	!	!	!
2GG/]	5:6	2GG/]	5:6	16B\	.	.	.
.	.	.	.	16A\	.	.	.
.	.	.	.	16G\	.	.	.
.	.	.	.	16F\	.	.	.
.	.	.	.	16E/	.	.	.
.	.	.	.	16D\	.	.	.
.	.	.	.	16C/	.	.	.
!	!	!	!	!LO:TX:t=P:problem:kreska pseudotaktowa	!	!	!
.	.	.	.	16BB/	.	.	.
=32-	=32-	=32-	=32-	=32-	=32-	=32-	=32-
[2FFny/	.	[2FFny/	.	8AA/	.	.	.
.	.	.	.	16c\	.	.	.
.	.	.	.	16B\	.	.	.
.	.	.	.	16A\	.	.	.
.	.	.	.	16c\	.	.	.
.	.	.	.	16B\	.	.	.
.	.	.	.	16c\	.	.	.
2FF/]	5:6	2FF/]	5:6	16A\	.	.	.
.	.	.	.	16G\	.	.	.
.	.	.	.	16F\	.	.	.
.	.	.	.	16E\	.	.	.
.	.	.	.	16D/	.	.	.
.	.	.	.	16C/	.	.	.
.	.	.	.	16BB/	.	.	.
!	!	!	!	!LO:TX:t=P:problem:kreska pseudotaktowa	!	!	!
.	.	.	.	16AA/	.	.	.
=33-	=33-	=33-	=33-	=33-	=33-	=33-	=33-
!LO:TX:t=P:problem:kreska pseudotaktowa	!	!LO:TX:t=P:problem:kreska pseudotaktowa	!	!	!	!	!
1EE	5:6:5 #:4#r	1EE	5:6:5 #:4#r	8GG#X/	.	2r	.
*	*	*	*	*clefC4	*	*	*
.	.	.	.	16e\	.	.	.
.	.	.	.	16B\	.	.	.
.	.	.	.	8c\	.	.	.
.	.	.	.	16c\	.	.	.
.	.	.	.	16A/	.	.	.
!	!	!	!	!LO:TX:t=P:problem:kreska pseudotaktowa	!	!	!
.	.	.	.	2B\	.	8r	.
.	.	.	.	.	.	8ee\	.
.	.	.	.	.	.	8.ee\	.
!	!	!	!	!	!	!LO:TX:t=P:problem:kreska pseudotaktowa	!
.	.	.	.	.	.	16b/	.
=34-	=34-	=34-	=34-	=34-	=34-	=34-	=34-
4AA/	.	4AA/	.	8A/	.	4cc#X\	.
.	.	.	.	8A/	.	.	.
4C#X/	6	4C#X/	6	8.A/	.	4r	.
.	.	.	.	16E/	.	.	.
4D/	#	4D/	#	4F#X/	.	8r	.
.	.	.	.	.	.	8dd\	.
4FF#X/	.	4FF#X/	.	4r	.	8.dd\	.
.	.	.	.	.	.	16a/	.
=35-	=35-	=35-	=35-	=35-	=35-	=35-	=35-
4GG/	6	4GG/	6	8r	.	4b/	.
.	.	.	.	8G/	.	.	.
4BBny/	.	4BBny/	.	8.G/	.	4r	.
.	.	.	.	16D/	.	.	.
*	*	*	*	*custos:E	*	*	*
!	!	!	!	!LO:LB:g=original	!	!LO:TX:t=P:problem:kreska pseudotaktowa	!
4Cny/	.	4Cny/	.	8E/	.	2r	.
.	.	.	.	16g\	.	.	.
.	.	.	.	16fny\	.	.	.
*custos:CC	*	*custos:CC	*	*	*	*	*
!LO:LB:g=original	!	!LO:LB:g=original	!	!	!	!	!
8CC/	.	8CC/	.	16e\	.	.	.
.	.	.	.	16g\	.	.	.
8DD/	.	8DD/	.	16f\	.	.	.
!	!	!	!	!LO:TX:t=P:problem:kreska pseudotaktowa	!	!	!
.	.	.	.	16g\	.	.	.
=36-	=36-	=36-	=36-	=36-	=36-	=36-	=36-
4EE/	.	4EE/	.	16e\	.	2r	.
.	.	.	.	16d\	.	.	.
.	.	.	.	16c\	.	.	.
.	.	.	.	16B\	.	.	.
4FFny/	.	4FFny/	.	16A/	.	.	.
.	.	.	.	16G/	.	.	.
.	.	.	.	16Fny/	.	.	.
.	.	.	.	16E/	.	.	.
4.GG/	.	4.GG/	.	4D/	.	8r	.
.	.	.	.	.	.	16dd\	.
.	.	.	.	.	.	16ccny\	.
!	!	!	!	!LO:TX:t=P:problem:kreska pseudotaktowa	!	!	!
.	.	.	.	4r	.	16b/	.
.	.	.	.	.	.	16dd\	.
!LO:TX:t=P:problem:kreska pseudotaktowa	!	!LO:TX:t=P:problem:kreska pseudotaktowa	!	!	!	!	!
8AA/	.	8AA/	.	.	.	16cc\	.
.	.	.	.	.	.	16dd\	.
=37-	=37-	=37-	=37-	=37-	=37-	=37-	=37-
4BB/	.	4BB/	.	2r	.	16b/	.
.	.	.	.	.	.	16a/	.
.	.	.	.	.	.	16g/	.
.	.	.	.	.	.	16fny/	.
4C/	.	4C/	.	.	.	16e/	.
.	.	.	.	.	.	16d/	.
.	.	.	.	.	.	16cny/	.
.	.	.	.	.	.	16B/	.
*custos:D	*	*custos:D	*	*	*	*	*
!LO:LB:g=original	!	!LO:LB:g=original	!	!	!	!	!
4D/	.	4D\	.	8r	.	4A/	.
.	.	.	.	8d\	.	.	.
!	!	!	!	!	!	!LO:TX:t=P:problem:kreska pseudotaktowa	!
4F#X\	.	4F#X\	.	8.d\	.	4r	.
.	.	.	.	16A/	.	.	.
=38-	=38-	=38-	=38-	=38-	=38-	=38-	=38-
4G\	.	4G\	.	8B\	.	2r	.
.	.	.	.	8f\	.	.	.
4BB/	.	4BB/	.	8.f\	.	.	.
.	.	.	.	16d\	.	.	.
8C/	.	8C/	.	4e\	.	8r	.
8c\	.	8c\	.	.	.	16gg\	.
.	.	.	.	.	.	16ff\	.
!	!	!	!	!LO:TX:t=P:problem:kreska pseudotaktowa	!	!	!
8.c\	.	8.c\	.	4r	.	16ee\	.
.	.	.	.	.	.	16gg\	.
.	.	.	.	.	.	16ff\	.
!	!	!	!	!	!	!LO:TX:t=P:problem:kreska pseudotaktowa	!
16G\	.	16G\	.	.	.	16gg\	.
=39-	=39-	=39-	=39-	=39-	=39-	=39-	=39-
2A\	5:6	2A\	5:6	8r	.	16ee\	.
.	.	.	.	.	.	16dd\	.
.	.	.	.	8f\	.	16cc\	.
.	.	.	.	.	.	16b/	.
*	*	*	*	*	*	*custos:a	*
!	!	!	!	!	!	!LO:LB:g=original	!
.	.	.	.	8.f\	.	16a/	.
.	.	.	.	.	.	16g/	.
.	.	.	.	.	.	16f/	.
.	.	.	.	16c\	.	16e/	.
8r	.	8r	.	4d\	.	8d/	.
8B-X\	.	8B-X\	.	.	.	16ff\	.
.	.	.	.	.	.	16ee\	.
8.B-\	.	8.B-\	.	4r	.	16dd\	.
.	.	.	.	.	.	16ff\	.
.	.	.	.	.	.	16ee\	.
!LO:TX:t=P:problem:kreska pseudotaktowa	!	!LO:TX:t=P:problem:kreska pseudotaktowa	!	!	!	!LO:TX:t=P:problem:kreska pseudotaktowa	!
16Fny\	.	16Fny\	.	.	.	16ff\	.
=40-	=40-	=40-	=40-	=40-	=40-	=40-	=40-
[<2G\	.	[<2G\	.	8r	.	16dd\	.
.	.	.	.	.	.	16cc\	.
.	.	.	.	8e\	.	16b/	.
.	.	.	.	.	.	16a/	.
.	.	.	.	8.e\	.	16g/	.
.	.	.	.	.	.	16f/	.
.	.	.	.	.	.	16e/	.
.	.	.	.	16B\	.	16d/	.
4G\]	6 4	4G\]	6 4	4c#X\	.	16c#X/	.
.	.	.	.	.	.	16ee\	.
.	.	.	.	.	.	16ee\	.
.	.	.	.	.	.	16ee\	.
4F\	6	4F\	6	4.d\	.	16a/	.
.	.	.	.	.	.	16dd\	.
.	.	.	.	.	.	16dd\	.
!	!	!	!	!	!	!LO:TX:t=P:problem:kreska pseudotaktowa	!
.	.	.	.	.	.	16dd\	.
=41-	=41-	=41-	=41-	=41-	=41-	=41-	=41-
!	!	!	!	!	!	!LO:TX:t=P:problem:tu trochę zmieniam rytm, myslę, że bardziej adekwatnie	!
2E\	7:6 #	2E\	7:6 #	.	.	16g/	.
.	.	.	.	.	.	16a/	.
.	.	.	.	8d\	.	16b/	.
.	.	.	.	.	.	16cc\	.
.	.	.	.	4c#X\	.	16dd\	.
.	.	.	.	.	.	32ee\	.
.	.	.	.	.	.	32ff\	.
.	.	.	.	.	.	32gg\	.
.	.	.	.	.	.	32ff\	.
.	.	.	.	.	.	32gg\	.
.	.	.	.	.	.	32ee\	.
!LO:TX:t=P:problem:kreska pseudotaktowa	!	!LO:TX:t=P:problem:kreska pseudotaktowa	!	!	!	!	!
*	*	*	*	*custos:d	*	*	*
!	!	!	!	!LO:LB:g=original	!	!	!
2D/	#	2D/	#	8d\	.	8ff#X\	.
.	.	.	.	16d\	.	8dd\	.
.	.	.	.	16c#\	.	.	.
.	.	.	.	16B\	.	8.dd\	.
.	.	.	.	16d\	.	.	.
.	.	.	.	16c#\	.	.	.
!	!	!	!	!LO:TX:t=P:problem:kreska pseudotaktowa	!	!LO:TX:t=P:problem:kreska pseudotaktowa	!
.	.	.	.	16d\	.	16a/	.
=42-	=42-	=42-	=42-	=42-	=42-	=42-	=42-
4GG/	.	4GG/	.	16B\	.	4b/	.
.	.	.	.	16A/	.	.	.
.	.	.	.	16G/	.	.	.
.	.	.	.	16F/	.	.	.
4C/	.	4C/	.	16E/	.	4r	.
.	.	.	.	16D/	.	.	.
.	.	.	.	16C/	.	.	.
.	.	.	.	16BB/	.	.	.
4AA/	.	4AA/	.	4AA/	.	8r	.
.	.	.	.	.	.	8cc\	.
!	!	!	!	!LO:TX:t=P:problem:kreska pseudotaktowa	!	!	!
4EE/	.	4EE/	.	4r	.	8.cc\	.
!	!	!	!	!	!	!LO:TX:t=P:problem:kreska pseudotaktowa	!
.	.	.	.	.	.	16g/	.
*	*	*	*	*clefF4	*	*	*
=43-	=43-	=43-	=43-	=43-	=43-	=43-	=43-
8FF/	.	8FF/	.	8r	.	8a/	.
8F\	.	8F\	.	8F\	.	16aa\	.
.	.	.	.	.	.	16gg\	.
8.F\	.	8.F\	.	8.F\	.	16ffny\	.
.	.	.	.	.	.	16aa\	.
.	.	.	.	.	.	16gg\	.
16C/	6	16C/	6	16C/	.	16aa\	.
4D/	.	4D/	.	4D/	.	16ff\	.
.	.	.	.	.	.	16ee\	.
.	.	.	.	.	.	16dd\	.
.	.	.	.	.	.	16cc\	.
!LO:TX:t=P:problem:kreska pseudotaktowa	!	!LO:TX:t=P:problem:kreska pseudotaktowa	!	!LO:TX:t=P:problem:kreska pseudotaktowa	!	!	!
4G\	.	4G\	.	4r	.	16b/	.
.	.	.	.	.	.	16a/	.
.	.	.	.	.	.	16g/	.
!	!	!	!	!	!	!LO:TX:t=P:problem:kreska pseudotaktowa	!
.	.	.	.	.	.	16f/	.
=44-	=44-	=44-	=44-	=44-	=44-	=44-	=44-
8C/	.	8C/	.	8r	.	8e/	.
8E\	.	8E\	.	8E\	.	16gg\	.
.	.	.	.	.	.	16ff\	.
8.E\	.	8.E\	.	8.E\	.	16ee\	.
.	.	.	.	.	.	16gg\	.
.	.	.	.	.	.	16ff\	.
16BB/	.	16BB/	.	16BB/	.	16gg\	.
4C/	.	4C/	.	4C/	.	16ee\	.
.	.	.	.	.	.	16dd\	.
.	.	.	.	.	.	16cc\	.
.	.	.	.	.	.	16b/	.
!	!	!	!	!LO:TX:t=P:problem:kreska pseudotaktowa	!	!	!
4FF/	.	4FF/	.	4r	.	16a/	.
.	.	.	.	.	.	16g/	.
.	.	.	.	.	.	16f/	.
.	.	.	.	.	.	16e/	.
*	*	*	*	*	*	*custos:d	*
!	!	!	!	!	!	!LO:LB:g=original	!
=45-	=45-	=45-	=45-	=45-	=45-	=45-	=45-
8GG/	.	8GG/	.	8r	.	8d/	.
8G\	.	8G\	.	8G\	.	16dd\	.
.	.	.	.	.	.	16cc\	.
8.G\	.	8.G\	.	8.G\	.	16b/	.
.	.	.	.	.	.	16dd\	.
.	.	.	.	.	.	16cc\	.
16D/	.	16D/	.	16D/	.	16dd\	.
*custos:E	*	*custos:E	*	*	*	*	*
!LO:LB:g=original	!	!LO:LB:g=original	!	!	!	!	!
4E\	.	4E\	.	8E\	.	8g/	.
.	.	.	.	16G\	.	8gg\	.
.	.	.	.	16F\	.	.	.
8.E\	.	8.E\	.	16E\	.	8.gg\	.
.	.	.	.	16G\	.	.	.
.	.	.	.	16F\	.	.	.
!LO:TX:t=P:problem:kreska pseudotaktowa	!	!LO:TX:t=P:problem:kreska pseudotaktowa	!	!	!	!LO:TX:t=P:problem:kreska pseudotaktowa	!
16BB/	.	16BB/	.	16G\	.	16dd\	.
*	*	*	*	*	*	*custos:ee	*
!	!	!	!	!	!	!LO:LB:g=original	!
=46-	=46-	=46-	=46-	=46-	=46-	=46-	=46-
4C/	.	4C/	.	8C/	.	4ee\	.
.	.	.	.	8cny\	.	.	.
8.c\	.	8.c\	.	8.c\	.	4r	.
16G\	.	16G\	.	16G\	.	.	.
4A\	.	4A\	.	8A\	.	8r	.
.	.	.	.	8A\	.	16ee\	.
.	.	.	.	.	.	16dd\	.
8.A\	.	8.A\	.	8.A\	.	16cc\	.
.	.	.	.	.	.	16ee\	.
.	.	.	.	.	.	16dd\	.
!LO:TX:t=P:problem:kreska pseudotaktowa	!	!LO:TX:t=P:problem:kreska pseudotaktowa	!	!LO:TX:t=P:problem:kreska pseudotaktowa	!	!LO:TX:t=P:problem:kreska pseudotaktowa	!
16E\	.	16E\	.	16E\	.	16ee\	.
=47-	=47-	=47-	=47-	=47-	=47-	=47-	=47-
8F\	.	8F\	.	8F\	.	8a/	.
*	*	*	*	*clefC4	*	*	*
8D/	.	8D/	.	16f\	.	16aa\	.
.	.	.	.	16e\	.	16gg\	.
4.d\	.	4.d\	.	16d\	.	16ff\	.
.	.	.	.	16f\	.	16aa\	.
.	.	.	.	16e\	.	16gg\	.
.	.	.	.	16f\	.	16aa\	.
.	.	.	.	16d\	.	16ff\	.
.	.	.	.	16c\	.	16ee\	.
8B-X\	.	8B-X\	.	16B\	.	16dd\	.
.	.	.	.	16A/	.	16cc\	.
8G\	.	8G\	.	16G/	.	16b-X\	.
.	.	.	.	16F/	.	16a/	.
8E\	.	8E\	.	16E/	.	16g/	.
!	!	!	!	!LO:TX:t=P:problem:kreska pseudotaktowa	!	!	!
.	.	.	.	16D/	.	16f/	.
*	*	*	*	*	*	*custos:e	*
!	!	!	!	!	!	!LO:LB:g=original	!
=48-	=48-	=48-	=48-	=48-	=48-	=48-	=48-
[2C/	.	[2C/	.	8C/	.	8e/	.
.	.	.	.	16e\	.	16gg\	.
.	.	.	.	16d\	.	16ff\	.
.	.	.	.	16c\	.	16ee\	.
.	.	.	.	16e\	.	16gg\	.
.	.	.	.	16d\	.	16ff\	.
.	.	.	.	16e\	.	16gg\	.
4C/]	5:6	4C/]	5:6	16c\	.	16ee\	.
.	.	.	.	16B\	.	16dd\	.
.	.	.	.	16A/	.	16cc\	.
.	.	.	.	16G/	.	16bny/	.
4D/	.	4D/	.	16F/	.	16a/	.
.	.	.	.	16E/	.	16g/	.
.	.	.	.	16D/	.	16f/	.
!	!	!	!	!	!	!LO:TX:t=P:problem:kreska pseudotaktowa	!
.	.	.	.	16C/	.	16e/	.
*	*	*	*	*custos:BB-	*	*	*
!	!	!	!	!LO:LB:g=original	!	!	!
=49-	=49-	=49-	=49-	=49-	=49-	=49-	=49-
[2BB-X/	.	[2BB-X/	.	8BB-X/	.	8d/	.
.	.	.	.	16d\	.	16ff\	.
.	.	.	.	16c\	.	16ee\	.
.	.	.	.	16B-X\	.	16dd\	.
.	.	.	.	16d\	.	16ff\	.
.	.	.	.	16c\	.	16ee\	.
.	.	.	.	16d\	.	16ff\	.
4BB-/]	5:6	4BB-/]	5:6	16B-X\	.	16dd\	.
.	.	.	.	16A/	.	16cc\	.
.	.	.	.	16G/	.	16b-X/	.
.	.	.	.	16F/	.	16a/	.
4C/	.	4C/	.	16E/	.	16g/	.
.	.	.	.	16D/	.	16f/	.
.	.	.	.	16C/	.	16e/	.
!	!	!	!	!LO:TX:t=P:problem:kreska pseudotaktowa	!	!	!
.	.	.	.	16BB-/	.	16d/	.
=50-	=50-	=50-	=50-	=50-	=50-	=50-	=50-
[2AA/	5:6	[2AA/	5:6	4AA/	.	8c#X/	.
.	.	.	.	.	.	16aa\	.
.	.	.	.	.	.	16ee\	.
.	.	.	.	4r	.	8ff\	.
.	.	.	.	.	.	16ff\	.
.	.	.	.	.	.	16dd\	.
2AA/]	5:6 #:4#r	2AA/]	5:6 #:4#r	8r	.	4cc#X\	.
.	.	.	.	16a\	.	.	.
.	.	.	.	16e\	.	.	.
.	.	.	.	8f\	.	4dd\	.
.	.	.	.	16e\	.	.	.
.	.	.	.	16d\	.	.	.
*	*	*	*	*	*	*custos:ee	*
!	!	!	!	!	!	!LO:LB:g=original	!
=51-	=51-	=51-	=51-	=51-	=51-	=51-	=51-
1AA	4#r	1AA	4#r	4c#X\	.	4ee\	.
.	.	.	.	2d\	.	4ff\	.
.	.	.	.	.	.	2ee\	.
.	.	.	.	4c#X\	.	.	.
=52-	=52-	=52-	=52-	=52-	=52-	=52-	=52-
1D	.	1D	.	1d	.	1dd	.
=53-	=53-	=53-	=53-	=53-	=53-	=53-	=53-
*M3/2	*	*M3/2	*	*M3/2	*	*M3/2	*
!LO:TX:b:t=adagio.	!	!LO:TX:b:t=adagio.	!	!LO:TX:b:t=Adagio.	!	!	!
2D/	.	2D/	.	00.r	.	0.r	.
2F\	.	2F\	.	.	.	.	.
2A\	#	2A\	#	.	.	.	.
=54-	=54-	=54-	=54-	=54-	=54-	=54-	=54-
1D	.	1D	.	.	.	.	.
!LO:TX:t=P:problem:kreska pseudotaktowa	!	!LO:TX:t=P:problem:kreska pseudotaktowa	!	!	!	!	!
2C/	6	2C/	6	.	.	.	.
=55-	=55-	=55-	=55-	=55-	=55-	=55-	=55-
4BB-X/	.	4BB-X/	.	.	.	1.r	.
4FF/	.	4FF/	.	.	.	.	.
2GG/	6	2GG/	6	.	.	.	.
2AA/	.	2AA/	.	.	.	.	.
*custos:D	*	*custos:D	*	*	*	*	*
!LO:LB:g=original	!	!LO:LB:g=original	!	!	!	!	!
=56-	=56-	=56-	=56-	=56-	=56-	=56-	=56-
!	!	!	!	!	!	!LO:TX:b:t=adagio.	!
1D	.	1D	.	.	.	8dd\	.
.	.	.	.	.	.	8ccny\	.
.	.	.	.	.	.	8dd\	.
.	.	.	.	.	.	8a/	.
.	.	.	.	.	.	8f/	.
.	.	.	.	.	.	8d/	.
.	.	.	.	.	.	8f/	.
.	.	.	.	.	.	8g/	.
!LO:TX:t=P:problem:kreska pseudotaktowa	!	!LO:TX:t=P:problem:kreska pseudotaktowa	!	!	!	!	!
2C#X/	.	2C#X/	.	.	.	4a/	.
!	!	!	!	!	!	!LO:TX:t=P:problem:kreska pseudotaktowa	!
.	.	.	.	.	.	4a/	.
=57-	=57-	=57-	=57-	=57-	=57-	=57-	=57-
1D	.	1D	.	00.r	.	2d/	.
.	.	.	.	.	.	2r	.
2E\	.	2E\	.	.	.	2r	.
=58-	=58-	=58-	=58-	=58-	=58-	=58-	=58-
1F	.	1F	.	.	.	8ff\	.
.	.	.	.	.	.	8ee\	.
.	.	.	.	.	.	8ff\	.
.	.	.	.	.	.	8cc\	.
.	.	.	.	.	.	8a/	.
.	.	.	.	.	.	8f/	.
.	.	.	.	.	.	8a/	.
.	.	.	.	.	.	8bny/	.
!LO:TX:t=P:problem:kreska pseudotaktowa	!	!LO:TX:t=P:problem:kreska pseudotaktowa	!	!	!	!	!
2E\	6	2E\	6	.	.	4cc\	.
!	!	!	!	!	!	!LO:TX:t=P:problem:kreska pseudotaktowa	!
.	.	.	.	.	.	4cc\	.
=59-	=59-	=59-	=59-	=59-	=59-	=59-	=59-
1F	.	1F	.	.	.	2f/	.
.	.	.	.	.	.	2r	.
2G\	.	2G\	.	.	.	2r	.
=60-	=60-	=60-	=60-	=60-	=60-	=60-	=60-
1A	.	1A	.	.	.	8aa\	.
.	.	.	.	.	.	8gg\	.
.	.	.	.	.	.	8aa\	.
.	.	.	.	.	.	8ee\	.
.	.	.	.	.	.	8cc\	.
.	.	.	.	.	.	8a/	.
.	.	.	.	.	.	8cc\	.
.	.	.	.	.	.	8dd\	.
!LO:TX:t=P:problem:kreska pseudotaktowa	!	!LO:TX:t=P:problem:kreska pseudotaktowa	!	!	!	!	!
2G#X\	6	2G#X\	6	.	.	4ee\	.
.	.	.	.	.	.	4ee\	.
*	*	*	*	*	*	*custos:a	*
!	!	!	!	!	!	!LO:LB:g=original	!
=61-	=61-	=61-	=61-	=61-	=61-	=61-	=61-
!	!	!	!	!LO:TX:t=P:problem: custos x2	!	!	!
2A\	.	2A\	.	1.r	.	1a	.
2D/	6	2D/	6	.	.	.	.
2E\	#	2E\	#	.	.	2g#X/	.
*	*	*	*	*custos:A	*	*	*
*	*	*	*	*custos:A	*	*	*
!	!	!	!	!LO:LB:g=original	!	!	!
=62-	=62-	=62-	=62-	=62-	=62-	=62-	=62-
2AA/	.	2AA/	.	4r	.	1a	.
.	.	.	.	4A/	.	.	.
2A\	.	2A\	.	4A/	.	.	.
.	.	.	.	4A/	.	.	.
!	!	!	!	!LO:TX:b:t=Adagio.	!	!	!
2Gny\	.	2Gny\	.	4G/	.	2r	.
.	.	.	.	8G/	.	.	.
!	!	!	!	!LO:TX:t=P:problem:kreska pseudotaktowa	!	!	!
.	.	.	.	8A/	.	.	.
=63-	=63-	=63-	=63-	=63-	=63-	=63-	=63-
1F	.	1F	.	4F/	.	00.r	.
.	.	.	.	4F/	.	.	.
.	.	.	.	4F/	.	.	.
.	.	.	.	4F/	.	.	.
!LO:TX:t=P:problem:kreska pseudotaktowa	!	!LO:TX:t=P:problem:kreska pseudotaktowa	!	!	!	!	!
2E\	.	2E\	.	4E/	.	.	.
.	.	.	.	8E/	.	.	.
!	!	!	!	!LO:TX:t=P:problem:kreska pseudotaktowa	!	!	!
.	.	.	.	8F/	.	.	.
=64-	=64-	=64-	=64-	=64-	=64-	=64-	=64-
2D/	.	2D/	.	4D/	.	.	.
.	.	.	.	4d\	.	.	.
2d\	.	2d\	.	4d\	.	.	.
.	.	.	.	4d\	.	.	.
2c\	.	2c\	.	4cny\	.	.	.
.	.	.	.	8c\	.	.	.
.	.	.	.	8d\	.	.	.
=65-	=65-	=65-	=65-	=65-	=65-	=65-	=65-
1B-X	.	1B-X	.	4B-X\	.	.	.
.	.	.	.	4B-\	.	.	.
.	.	.	.	4B-\	.	.	.
.	.	.	.	4B-\	.	.	.
2A\	.	2A\	.	4A/	.	.	.
.	.	.	.	8A/	.	.	.
!	!	!	!	!LO:TX:t=P:problem:kreska pseudotaktowa	!	!	!
.	.	.	.	8B-\	.	.	.
=66-	=66-	=66-	=66-	=66-	=66-	=66-	=66-
2G\	.	2G\	.	4G/	.	.	.
.	.	.	.	8F/	.	.	.
.	.	.	.	8E/	.	.	.
2D/	.	2D/	.	8D/	.	.	.
.	.	.	.	8E/	.	.	.
.	.	.	.	8F/	.	.	.
.	.	.	.	8G/	.	.	.
!LO:TX:t=P:problem:kreska pseudotaktowa	!	!LO:TX:t=P:problem:kreska pseudotaktowa	!	!	!	!	!
2A\	#	2A\	#	4A/	.	.	.
.	.	.	.	4AA/	.	.	.
=67-	=67-	=67-	=67-	=67-	=67-	=67-	=67-
1D	.	1D	.	1D	.	4r	.
.	.	.	.	.	.	4aa\	.
.	.	.	.	.	.	4aa\	.
.	.	.	.	.	.	4aa\	.
2E\	.	2E\	.	2r	.	4gg\	.
.	.	.	.	.	.	8gg\	.
!	!	!	!	!	!	!LO:TX:t=P:problem:kreska pseudotaktowa	!
.	.	.	.	.	.	8aa\	.
*	*	*	*	*custos:d	*	*	*
!	!	!	!	!LO:LB:g=original	!	!	!
=68-	=68-	=68-	=68-	=68-	=68-	=68-	=68-
1F	6	1F	6	8d\	.	4ff\	.
.	.	.	.	8c\	.	.	.
.	.	.	.	8d\	.	4ff\	.
.	.	.	.	8A/	.	.	.
.	.	.	.	8F/	.	4ff\	.
.	.	.	.	8D/	.	.	.
.	.	.	.	8F/	.	4ff\	.
.	.	.	.	8G/	.	.	.
2A\	#	2A\	#	4A/	.	4ee\	.
!	!	!	!	!LO:TX:t=P:problem:kreska pseudotaktowa	!	!	!
.	.	.	.	4A/	.	8ee\	.
!	!	!	!	!	!	!LO:TX:t=P:problem:kreska pseudotaktowa	!
.	.	.	.	.	.	8ff\	.
=69-	=69-	=69-	=69-	=69-	=69-	=69-	=69-
2D/	.	2D/	.	4D/	.	8dd\	.
.	.	.	.	.	.	8cc\	.
.	.	.	.	4d\	.	8dd\	.
.	.	.	.	.	.	8a/	.
2d\	.	2d\	.	4d\	.	8f/	.
.	.	.	.	.	.	8d/	.
.	.	.	.	4d\	.	8f/	.
.	.	.	.	.	.	8gny/	.
!LO:TX:t=P:problem:kreska pseudotaktowa	!	!LO:TX:t=P:problem:kreska pseudotaktowa	!	!	!	!	!
2c\	.	2c\	.	4c\	.	4a/	.
.	.	.	.	8c\	.	4a/	.
.	.	.	.	8d\	.	.	.
=70-	=70-	=70-	=70-	=70-	=70-	=70-	=70-
1B-X	.	1B-X	.	4B-X\	.	1d	.
.	.	.	.	4B-\	.	.	.
.	.	.	.	4B-\	.	.	.
.	.	.	.	4B-\	.	.	.
2A\	.	2A\	.	4A/	.	2r	.
.	.	.	.	8A/	.	.	.
.	.	.	.	8B-\	.	.	.
*custos:G	*	*custos:G	*	*clefF4	*	*	*
!LO:LB:g=original	!	!LO:LB:g=original	!	!	!	!	!
=71-	=71-	=71-	=71-	=71-	=71-	=71-	=71-
2G\	-	2G\	-	8G\	.	4r	.
.	.	.	.	8F\	.	.	.
.	.	.	.	8G\	.	4b-X/	.
.	.	.	.	8D/	.	.	.
2BB-X/	.	2BB-X/	.	8BB-X/	.	4b-/	.
.	.	.	.	8GGny/	.	.	.
.	.	.	.	8BB-/	.	4b-/	.
.	.	.	.	8C/	.	.	.
2D/	#	2D/	#	4D/	.	4a/	.
.	.	.	.	4D/	.	8a/	.
.	.	.	.	.	.	8b-/	.
*	*	*	*	*	*	*custos:g	*
!	!	!	!	!	!	!LO:LB:g=original	!
=72-	=72-	=72-	=72-	=72-	=72-	=72-	=72-
2GG/	.	2GG/	.	4GG/	.	1g	.
.	.	.	.	4G\	.	.	.
2G\	.	2G\	.	4G\	.	.	.
.	.	.	.	4G\	.	.	.
*	*	*	*	*custos:F	*	*	*
!	!	!	!	!LO:LB:g=original	!	!	!
2F\	.	2F\	.	4F\	.	2r	.
.	.	.	.	8F\	.	.	.
!	!	!	!	!LO:TX:t=P:problem:kreska pseudotaktowa	!	!	!
.	.	.	.	8G\	.	.	.
=73-	=73-	=73-	=73-	=73-	=73-	=73-	=73-
2E\	.	2E\	.	4E\	.	4r	.
*	*	*	*	*clefC4	*	*	*
.	.	.	.	4e\	.	4gg\	.
*clefC4	*	*clefC4	*	*	*	*	*
2e\	.	2e\	.	4e\	.	4gg\	.
.	.	.	.	4e\	.	4gg\	.
!LO:TX:t=P:problem:kreska pseudotaktowa	!	!LO:TX:t=P:problem:kreska pseudotaktowa	!	!	!	!	!
2d\	.	2d\	.	4d\	.	4ff\	.
.	.	.	.	8d\	.	8ff\	.
.	.	.	.	8e\	.	8gg\	.
=74-	=74-	=74-	=74-	=74-	=74-	=74-	=74-
2c\	.	2c\	.	8c\	.	4ee\	.
.	.	.	.	8Bny\	.	.	.
.	.	.	.	8c\	.	4ee\	.
.	.	.	.	8G/	.	.	.
2E/	.	2E/	.	8E/	.	4ee\	.
.	.	.	.	8C/	.	.	.
.	.	.	.	8E/	.	4ee\	.
.	.	.	.	8F/	.	.	.
2G/	.	2G/	.	4G/	.	4dd\	.
.	.	.	.	4G/	.	8dd\	.
.	.	.	.	.	.	8ee\	.
=75-	=75-	=75-	=75-	=75-	=75-	=75-	=75-
2Cny/	.	2Cny/	.	1C	.	8cc\	.
.	.	.	.	.	.	8bny/	.
.	.	.	.	.	.	8cc\	.
.	.	.	.	.	.	8g/	.
2c\	.	2c\	.	.	.	8e/	.
.	.	.	.	.	.	8d/	.
.	.	.	.	.	.	8e/	.
.	.	.	.	.	.	8f/	.
2B-X\	.	2B-X\	.	2r	.	4g/	.
!	!	!	!	!	!	!LO:TX:t=P:problem:kreska pseudotaktowa	!
.	.	.	.	.	.	4g/	.
=76-	=76-	=76-	=76-	=76-	=76-	=76-	=76-
1A	.	1A	.	1.r	.	4cny/	.
.	.	.	.	.	.	4cc\	.
.	.	.	.	.	.	4cc\	.
.	.	.	.	.	.	4cc\	.
2G/	-	2G/	-	.	.	4b-X/	.
.	.	.	.	.	.	8b-/	.
.	.	.	.	.	.	8cc\	.
=77-	=77-	=77-	=77-	=77-	=77-	=77-	=77-
2F/	.	2F/	.	8f\	.	1a	.
.	.	.	.	8e\	.	.	.
.	.	.	.	8f\	.	.	.
.	.	.	.	8c\	.	.	.
2A/	.	2A/	.	8A/	.	.	.
.	.	.	.	8F/	.	.	.
.	.	.	.	8A/	.	.	.
.	.	.	.	8B\	.	.	.
2c\	.	2c\	.	4c\	.	2r	.
.	.	.	.	4c\	.	.	.
=78-	=78-	=78-	=78-	=78-	=78-	=78-	=78-
2F/	.	2F/	.	4F/	.	8ff\	.
.	.	.	.	.	.	8ee\	.
.	.	.	.	4f\	.	8ff\	.
.	.	.	.	.	.	8cc\	.
2f\	.	2f\	.	4f\	.	8a/	.
.	.	.	.	.	.	8f/	.
.	.	.	.	4f\	.	8a/	.
.	.	.	.	.	.	8bny/	.
*	*	*	*	*	*	*custos:cc	*
!	!	!	!	!	!	!LO:LB:g=original	!
2e\	6	2e\	6	4e\	.	4cc\	.
.	.	.	.	8e\	.	4cc\	.
.	.	.	.	8f\	.	.	.
*	*	*	*	*custos:d	*	*	*
!	!	!	!	!LO:LB:g=original	!	!	!
=79-	=79-	=79-	=79-	=79-	=79-	=79-	=79-
1d	.	1d	.	4d\	.	4f/	.
.	.	.	.	4d\	.	4ff\	.
.	.	.	.	4d\	.	4ff\	.
.	.	.	.	4d\	.	4ff\	.
2c\	.	2c\	.	4c\	.	4ee\	.
.	.	.	.	8c\	.	8ee\	.
.	.	.	.	8d\	.	8ff\	.
=80-	=80-	=80-	=80-	=80-	=80-	=80-	=80-
1B-X	.	1B-X	.	1B-X	.	4dd\	.
.	.	.	.	.	.	4dd\	.
.	.	.	.	.	.	4dd\	.
.	.	.	.	.	.	4dd\	.
2A/	.	2A/	.	2r	.	4cc\	.
.	.	.	.	.	.	8cc\	.
.	.	.	.	.	.	8dd\	.
*	*	*	*	*clefF4	*	*	*
=81-	=81-	=81-	=81-	=81-	=81-	=81-	=81-
2G/	.	2G/	.	8G\	.	1b-X	.
.	.	.	.	8F\	.	.	.
.	.	.	.	8G\	.	.	.
.	.	.	.	8D/	.	.	.
*clefF4	*	*clefF4	*	*	*	*	*
2BB-X/	.	2BB-X/	.	8BB-X/	.	.	.
.	.	.	.	8GG/	.	.	.
.	.	.	.	8BB-/	.	.	.
.	.	.	.	8C/	.	.	.
2D/	.	2D/	.	4D/	.	2r	.
.	.	.	.	4D/	.	.	.
=82-	=82-	=82-	=82-	=82-	=82-	=82-	=82-
2GG/	.	2GG/	.	4GG/	.	1.r	.
.	.	.	.	4G\	.	.	.
2G\	.	2G\	.	4G\	.	.	.
.	.	.	.	4G\	.	.	.
2F\	.	2F\	.	4F\	.	.	.
.	.	.	.	8F\	.	.	.
.	.	.	.	8G\	.	.	.
=83-	=83-	=83-	=83-	=83-	=83-	=83-	=83-
1E	.	1E	.	1E	.	4r	.
.	.	.	.	.	.	4gg\	.
.	.	.	.	.	.	4gg\	.
.	.	.	.	.	.	4gg\	.
2D/	.	2D/	.	2r	.	4ff\	.
.	.	.	.	.	.	8ff\	.
.	.	.	.	.	.	8gg\	.
*custos:C	*	*custos:C	*	*clefC4	*	*	*
!LO:LB:g=original	!	!LO:LB:g=original	!	!	!	!	!
=84-	=84-	=84-	=84-	=84-	=84-	=84-	=84-
2C/	.	2C/	.	8c\	.	1ee	.
.	.	.	.	8Bny\	.	.	.
.	.	.	.	8c\	.	.	.
.	.	.	.	8G/	.	.	.
2E\	6	2E\	6	8E/	.	.	.
.	.	.	.	8C/	.	.	.
.	.	.	.	8E/	.	.	.
.	.	.	.	8F/	.	.	.
2G\	.	2G\	.	4G/	.	2r	.
.	.	.	.	4G/	.	.	.
*	*	*	*	*custos:C	*	*	*
!	!	!	!	!LO:LB:g=original	!	!	!
=85-	=85-	=85-	=85-	=85-	=85-	=85-	=85-
2C/	.	2C/	.	4C/	.	1.r	.
.	.	.	.	4c\	.	.	.
2AA/	.	2AA/	.	4c\	.	.	.
.	.	.	.	4c\	.	.	.
2GG/	-	2GG/	-	4B-X\	.	.	.
.	.	.	.	8B-\	.	.	.
.	.	.	.	8c\	.	.	.
=86-	=86-	=86-	=86-	=86-	=86-	=86-	=86-
1FF	.	1FF	.	4A/	.	8ff\	.
.	.	.	.	.	.	8ee\	.
.	.	.	.	4F/	.	8ff\	.
.	.	.	.	.	.	8cc\	.
.	.	.	.	4F/	.	8a/	.
.	.	.	.	.	.	8f/	.
.	.	.	.	4F/	.	8a/	.
.	.	.	.	.	.	8bny/	.
2AA/	5	2AA/	5	4E/	.	4cc\	.
.	.	.	.	8E/	.	4cc\	.
!	!	!	!	!LO:TX:t=P:problem:kreska pseudotaktowa	!	!	!
.	.	.	.	8F/	.	.	.
*	*	*	*	*	*	*custos:f	*
!	!	!	!	!	!	!LO:LB:g=original	!
=87-	=87-	=87-	=87-	=87-	=87-	=87-	=87-
2BB-X/	.	2BB-X/	.	4D/	.	1f	.
.	.	.	.	4B-X\	.	.	.
2B-X\	.	2B-X\	.	4B-\	.	.	.
.	.	.	.	4B-\	.	.	.
2A\	.	2A\	.	4A/	.	2r	.
.	.	.	.	8A/	.	.	.
.	.	.	.	8B-\	.	.	.
=88-	=88-	=88-	=88-	=88-	=88-	=88-	=88-
1G	-	1G	-	1G	.	8gg\	.
.	.	.	.	.	.	8ff\	.
.	.	.	.	.	.	8gg\	.
.	.	.	.	.	.	8dd\	.
.	.	.	.	.	.	8b-X/	.
.	.	.	.	.	.	8g/	.
.	.	.	.	.	.	8b-/	.
.	.	.	.	.	.	8cc\	.
!LO:TX:t=P:problem:kreska pseudotaktowa	!	!LO:TX:t=P:problem:kreska pseudotaktowa	!	!	!	!	!
2F\	6	2F\	6	2r	.	4dd\	.
!	!	!	!	!	!	!LO:TX:t=P:problem:kreska pseudotaktowa	!
.	.	.	.	.	.	4dd\	.
=89-	=89-	=89-	=89-	=89-	=89-	=89-	=89-
2E\	.	2E\	.	1.r	.	4g/	.
.	.	.	.	.	.	4cc\	.
2C/	.	2C/	.	.	.	4cc\	.
.	.	.	.	.	.	4cc\	.
2D/	6	2D/	6	.	.	4b-X/	.
.	.	.	.	.	.	8b-/	.
.	.	.	.	.	.	8cc\	.
*	*	*	*	*clefF4	*	*	*
=90-	=90-	=90-	=90-	=90-	=90-	=90-	=90-
2F\	.	2F\	.	8F\	.	1a	.
.	.	.	.	8E\	.	.	.
.	.	.	.	8F\	.	.	.
.	.	.	.	8C/	.	.	.
2AA/	6	2AA/	6	8AA/	.	.	.
.	.	.	.	8FF/	.	.	.
.	.	.	.	8AA/	.	.	.
.	.	.	.	8BBny/	.	.	.
!	!	!	!	!	!	!LO:TX:t=P:problem:kreska pseudotaktowa	!
2C/	.	2C/	.	4C/	.	2r	.
.	.	.	.	4C/	.	.	.
=91-	=91-	=91-	=91-	=91-	=91-	=91-	=91-
2FF/	.	2FF/	.	4FF/	.	8ff\	.
.	.	.	.	.	.	8ee\	.
.	.	.	.	4F\	.	8ff\	.
.	.	.	.	.	.	8cc\	.
2F\	.	2F\	.	4F\	.	8a/	.
.	.	.	.	.	.	8f/	.
.	.	.	.	4F\	.	8a/	.
.	.	.	.	.	.	8bny/	.
2E\	.	2E\	.	4E\	.	4cc\	.
.	.	.	.	8E\	.	4cc\	.
.	.	.	.	8F\	.	.	.
*	*	*	*	*custos:D	*	*	*
!	!	!	!	!LO:LB:g=original	!	!	!
=92-	=92-	=92-	=92-	=92-	=92-	=92-	=92-
2D/	.	2D/	.	8D/	.	4f/	.
.	.	.	.	8C/	.	.	.
.	.	.	.	8D/	.	4ff\	.
.	.	.	.	8AA/	.	.	.
2FF/	6	2FF/	6	8FF/	.	4ff\	.
.	.	.	.	8DD/	.	.	.
.	.	.	.	8FF/	.	4ff\	.
.	.	.	.	8GG/	.	.	.
!LO:TX:t=P:problem:kreska pseudotaktowa	!	!LO:TX:t=P:problem:kreska pseudotaktowa	!	!	!	!	!
2AA/	.	2AA/	.	4AA/	.	4ee\	.
!	!	!	!	!LO:TX:t=P:problem:kreska pseudotaktowa	!	!	!
.	.	.	.	4AA/	.	8ee\	.
.	.	.	.	.	.	8ff\	.
*	*	*	*	*	*	*custos:dd	*
!	!	!	!	!	!	!LO:PB:g=original	!
=93-	=93-	=93-	=93-	=93-	=93-	=93-	=93-
2D/	.	2D/	.	4DD/	.	8dd\	.
.	.	.	.	.	.	8cc\	.
*	*	*	*	*clefC4	*	*	*
.	.	.	.	4d\	.	8dd\	.
.	.	.	.	.	.	8a/	.
2d\	.	2d\	.	4d\	.	8f/	.
.	.	.	.	.	.	8d/	.
.	.	.	.	4d\	.	8f/	.
.	.	.	.	.	.	8g/	.
2c\	6	2c\	6	4c\	.	4a/	.
.	.	.	.	8c\	.	4a/	.
.	.	.	.	8d\	.	.	.
=94-	=94-	=94-	=94-	=94-	=94-	=94-	=94-
2B-X\	.	2B-X\	.	8B-X\	.	4d/	.
.	.	.	.	8A/	.	.	.
.	.	.	.	8B-\	.	4dd\	.
.	.	.	.	8F/	.	.	.
2D/	6	2D/	6	8D/	.	4dd\	.
.	.	.	.	8BB-X/	.	.	.
.	.	.	.	8D/	.	4dd\	.
.	.	.	.	8E/	.	.	.
2F\	.	2F\	.	4F/	.	4cc\	.
.	.	.	.	4F/	.	8cc\	.
.	.	.	.	.	.	8dd\	.
*	*	*	*	*clefF4	*	*	*
=95-	=95-	=95-	=95-	=95-	=95-	=95-	=95-
*M2/2	*	*M2/2	*	*M2/2	*	*M2/2	*
*met(C|)	*	*met(C|)	*	*met(C|)	*	*met(C|)	*
1BB-X	5:6	1BB-X	5:6	1BB-X	.	8b-X/	.
.	.	.	.	.	.	8dd\	.
.	.	.	.	.	.	8ff\	.
.	.	.	.	.	.	16ee\	.
.	.	.	.	.	.	16ff\	.
.	.	.	.	.	.	8dd\	.
.	.	.	.	.	.	8dd\	.
.	.	.	.	.	.	4.gg\	.
=96-	=96-	=96-	=96-	=96-	=96-	=96-	=96-
1AA	7:6:5 #:4#r	1AA	7:6:5 #:4#r	1AA	.	.	.
.	.	.	.	.	.	8ff\	.
.	.	.	.	.	.	8.ff\	.
.	.	.	.	.	.	16ee\	.
!	!	!	!	!	!	!LO:TX:t=P:problem:kreska pseudotaktowa	!
.	.	.	.	.	.	2ee\	.
*custos:A	*	*custos:A	*	*custos:A	*	*	*
!LO:PB:g=original	!	!LO:PB:g=original	!	!LO:LB:g=original	!	!	!
=97-	=97-	=97-	=97-	=97-	=97-	=97-	=97-
8r	.	8r	.	8r	.	8r	.
!LO:TX:b:t=allegro.	!	!LO:TX:b:t=allegro.	!	!LO:TX:b:t=allegro.	!	!LO:TX:b:t=allegro.	!
8A\	#	8A\	#	8A\	.	8cc#X\	.
8A\	#	8A\	#	8A\	.	8cc#\	.
8D/	#	8D/	#	8D/	.	8dd\	.
8D/	#	8D/	#	8D/	.	8dd\	.
*clefC4	*	*clefC4	*	*clefC4	*	*	*
8d\	#	8d\	#	8d\	.	8ff#X\	.
8d\	.	8d\	.	8d\	.	8ff#\	.
!LO:TX:t=P:problem:kreska pseudotaktowa	!	!LO:TX:t=P:problem:kreska pseudotaktowa	!	!LO:TX:t=P:problem:kreska pseudotaktowa	!	!	!
8G/	.	8G/	.	8G/	.	8gg\	.
*	*	*	*	*	*	*custos:gg	*
!	!	!	!	!	!	!LO:LB:g=original	!
=98-	=98-	=98-	=98-	=98-	=98-	=98-	=98-
8G/	.	8G/	.	8G/	.	8gg\	.
8g\	.	8g\	.	8g\	.	8bb\	.
8g\	.	8g\	.	8g\	.	8bb\	.
8c\	.	8c\	.	8c\	.	8ccc\	.
4c\	.	4c\	.	4c\	.	4ccc\	.
!LO:TX:t=P:problem:kreska pseudotaktowa	!	!LO:TX:t=P:problem:kreska pseudotaktowa	!	!	!	!	!
4r	.	4r	.	4r	.	4r	.
=99-	=99-	=99-	=99-	=99-	=99-	=99-	=99-
8r	.	8r	.	8r	.	8r	.
8G/	.	8G/	.	8G/	.	8bny/	.
8G/	.	8G/	.	8G/	.	8b/	.
8C/	.	8C/	.	8C/	.	8ccny\	.
8C/	.	8C/	.	8C/	.	8cc\	.
8c\	.	8c\	.	8c\	.	8ee\	.
8c\	.	8c\	.	8c\	.	8ee\	.
!LO:TX:t=P:problem:kreska pseudotaktowa	!	!LO:TX:t=P:problem:kreska pseudotaktowa	!	!LO:TX:t=P:problem:kreska pseudotaktowa	!	!	!
8F/	.	8F/	.	8F/	.	8ffny\	.
=100-	=100-	=100-	=100-	=100-	=100-	=100-	=100-
8F/	.	8F/	.	8F/	.	8ff\	.
8f\	.	8f\	.	8f\	.	8aa\	.
8f\	.	8f\	.	8f\	.	8aa\	.
8B-X\	.	8B-X\	.	8B-X\	.	8bb-X\	.
4B-\	.	4B-\	.	4B-\	.	4bb-\	.
!	!	!	!	!	!	!LO:TX:t=P:problem:kreska pseudotaktowa	!
4r	.	4r	.	4r	.	4r	.
*clefF4	*	*clefF4	*	*clefF4	*	*	*
=101-	=101-	=101-	=101-	=101-	=101-	=101-	=101-
8r	.	8r	.	8r	.	8r	.
8D/	#	8D/	#	8D/	.	8f#X/	.
8D/	#	8D/	#	8D/	.	8f#/	.
8GG/	.	8GG/	.	8GG/	.	8g/	.
8GG/	.	8GG/	.	8GG/	.	8g/	.
8G\	.	8G\	.	8G\	.	8b/	.
8G\	.	8G\	.	8G\	.	8b/	.
8C/	.	8C/	.	8C/	.	8cc\	.
=102-	=102-	=102-	=102-	=102-	=102-	=102-	=102-
8C/	.	8C/	.	8C/	.	8cc\	.
8c\	.	8c\	.	8c\	.	8ee\	.
8c\	.	8c\	.	8c\	.	8ee\	.
8F\	.	8F\	.	8F\	.	8ff\	.
4F\	.	4F\	.	4F\	.	4ff\	.
4r	.	4r	.	4r	.	4r	.
*custos:A	*	*custos:A	*	*custos:A	*	*	*
!LO:LB:g=original	!	!LO:LB:g=original	!	!LO:LB:g=original	!	!	!
=103-	=103-	=103-	=103-	=103-	=103-	=103-	=103-
8r	.	8r	.	8r	.	8r	.
!	!	!	!	!	!LO:DY:t=piano.	!	!LO:DY:t=piano,
8A\	#	8A\	#	8A\	p	8cc#X\	p
8A\	.	8A\	.	8A\	.	8cc#\	.
8D/	.	8D/	.	8D/	.	8dd\	.
4D/	.	4D/	.	4D/	.	4dd\	.
!LO:TX:t=P:problem:kreska pseudotaktowa	!	!LO:TX:t=P:problem:kreska pseudotaktowa	!	!	!	!	!
4r	.	4r	.	4r	.	4r	.
*	*	*	*	*clefC4	*	*	*
=104-	=104-	=104-	=104-	=104-	=104-	=104-	=104-
!LO:TX:b:t=Adagio.	!	!LO:TX:b:t=Adagio.	!	!LO:TX:b:t=Adagio.	!	!	!
4D/	.	4D/	.	4D/	.	00r	.
4C/	.	4C/	.	4E/	.	.	.
4BB-X/	.	4BB-X/	.	4F/	.	.	.
4AA/	6 #	4AA/	6 #	4F#X/	.	.	.
=105-	=105-	=105-	=105-	=105-	=105-	=105-	=105-
4GG/	.	4GG/	.	4G/	.	.	.
4FF/	.	4FF/	.	4A/	.	.	.
4EE-X/	5	4EE-X/	5	4B-X\	.	.	.
!LO:TX:t=P:problem:kreska pseudotaktowa	!	!LO:TX:t=P:problem:kreska pseudotaktowa	!	!LO:TX:t=P:problem:kreska pseudotaktowa	!	!	!
!	!	!	!	!LO:N:acc=#	!	!	!
4DD/	6	4DD/	6	4Bn\	.	.	.
=106-	=106-	=106-	=106-	=106-	=106-	=106-	=106-
4CC/	.	4CC/	.	8c\	.	.	.
.	.	.	.	16G/	.	.	.
.	.	.	.	16Fny/	.	.	.
4C/	5:6	4C/	5:6	16E/	.	.	.
.	.	.	.	32F/	.	.	.
.	.	.	.	32G/	.	.	.
.	.	.	.	16A/	.	.	.
.	.	.	.	16G/	.	.	.
2D/	.	2D/	.	16F/	.	.	.
.	.	.	.	16A/	.	.	.
.	.	.	.	16B\	.	.	.
.	.	.	.	16c\	.	.	.
.	.	.	.	16d\	.	.	.
.	.	.	.	16c\	.	.	.
.	.	.	.	32d\	.	.	.
.	.	.	.	32c\	.	.	.
.	.	.	.	32B\	.	.	.
.	.	.	.	32A/	.	.	.
=107-	=107-	=107-	=107-	=107-	=107-	=107-	=107-
4E\	.	4E\	.	8G/	.	.	.
.	.	.	.	16c\	.	.	.
.	.	.	.	16B\	.	.	.
4F\	5:6	4F\	5:6	16A/	.	.	.
.	.	.	.	32B\	.	.	.
.	.	.	.	32c\	.	.	.
.	.	.	.	16d\	.	.	.
.	.	.	.	16c\	.	.	.
*	*	*	*	*custos:B	*	*	*
!	!	!	!	!LO:LB:g=original	!	!	!
4G\	.	4G\	.	16B\	.	.	.
.	.	.	.	16d\	.	.	.
.	.	.	.	16e\	.	.	.
.	.	.	.	16f\	.	.	.
!LO:TX:t=P:problem:kreska pseudotaktowa	!	!LO:TX:t=P:problem:kreska pseudotaktowa	!	!	!	!	!
4BBny/	.	4BBny/	.	16g\	.	.	.
.	.	.	.	16f\	.	.	.
.	.	.	.	32g\	.	.	.
.	.	.	.	32f\	.	.	.
.	.	.	.	32e\	.	.	.
!	!	!	!	!LO:TX:t=P:problem:kreska pseudotaktowa	!	!	!
.	.	.	.	32d\	.	.	.
=108-	=108-	=108-	=108-	=108-	=108-	=108-	=108-
4C/	.	4C/	.	8c\	.	00r	.
.	.	.	.	16e\	.	.	.
.	.	.	.	16d\	.	.	.
4F\	.	4F\	.	16c\	.	.	.
.	.	.	.	32d\	.	.	.
.	.	.	.	32e\	.	.	.
.	.	.	.	16f\	.	.	.
.	.	.	.	16e\	.	.	.
4G\	.	4G\	.	8d\	.	.	.
.	.	.	.	16B\	.	.	.
.	.	.	.	16A/	.	.	.
4E\	6	4E\	6	16G/	.	.	.
.	.	.	.	32A/	.	.	.
.	.	.	.	32B\	.	.	.
.	.	.	.	16c\	.	.	.
!	!	!	!	!LO:TX:t=P:problem:kreska pseudotaktowa	!	!	!
.	.	.	.	16B\	.	.	.
=109-	=109-	=109-	=109-	=109-	=109-	=109-	=109-
4F\	.	4F\	.	16A/	.	.	.
.	.	.	.	16c\	.	.	.
.	.	.	.	16d\	.	.	.
.	.	.	.	16e\	.	.	.
4D/	.	4D/	.	16f\	.	.	.
.	.	.	.	16e\	.	.	.
.	.	.	.	32f\	.	.	.
.	.	.	.	32e\	.	.	.
.	.	.	.	32d\	.	.	.
.	.	.	.	32c\	.	.	.
4G\	.	4G\	.	8B\	.	.	.
.	.	.	.	16d\	.	.	.
.	.	.	.	16c\	.	.	.
!LO:TX:t=P:problem:kreska pseudotaktowa	!	!LO:TX:t=P:problem:kreska pseudotaktowa	!	!	!	!	!
4GG/	.	4GG/	.	16B\	.	.	.
.	.	.	.	32c\	.	.	.
.	.	.	.	32d\	.	.	.
.	.	.	.	16e\	.	.	.
.	.	.	.	16d\	.	.	.
*	*	*	*	*custos:c	*	*	*
!	!	!	!	!LO:LB:g=original	!	!	!
=110-	=110-	=110-	=110-	=110-	=110-	=110-	=110-
4AA/	.	4AA/	.	16c\	.	.	.
.	.	.	.	16A/	.	.	.
.	.	.	.	16B\	.	.	.
.	.	.	.	16c\	.	.	.
4FF#X/	6	4FF#X/	6	16d\	.	.	.
.	.	.	.	16c\	.	.	.
.	.	.	.	32d\	.	.	.
.	.	.	.	32c\	.	.	.
.	.	.	.	32B\	.	.	.
.	.	.	.	32A/	.	.	.
4GG/	.	4GG/	.	16G/	.	.	.
.	.	.	.	16B\	.	.	.
.	.	.	.	16c\	.	.	.
.	.	.	.	16d\	.	.	.
4C/	.	4C/	.	16e\	.	.	.
.	.	.	.	16d\	.	.	.
.	.	.	.	32e\	.	.	.
.	.	.	.	32d\	.	.	.
.	.	.	.	32c\	.	.	.
!	!	!	!	!LO:TX:t=P:problem:kreska pseudotaktowa	!	!	!
.	.	.	.	32B\	.	.	.
=111-	=111-	=111-	=111-	=111-	=111-	=111-	=111-
4F\	.	4F\	.	16A/	.	.	.
.	.	.	.	16c\	.	.	.
.	.	.	.	16d\	.	.	.
.	.	.	.	16e\	.	.	.
4D/	.	4D/	.	16f\	.	.	.
.	.	.	.	16e\	.	.	.
.	.	.	.	32f\	.	.	.
.	.	.	.	32e\	.	.	.
.	.	.	.	32d\	.	.	.
.	.	.	.	32c\	.	.	.
4E\	.	4E\	.	16B\	.	.	.
.	.	.	.	16A/	.	.	.
.	.	.	.	32B\	.	.	.
.	.	.	.	32A/	.	.	.
.	.	.	.	32G/	.	.	.
.	.	.	.	32F/	.	.	.
4C/	.	4C/	.	16E/	.	.	.
.	.	.	.	32F/	.	.	.
.	.	.	.	32G/	.	.	.
.	.	.	.	16A/	.	.	.
.	.	.	.	16G/	.	.	.
*	*	*	*	*custos:F	*	*custos:a	*
!	!	!	!	!LO:LB:g=original	!	!LO:LB:g=original	!
=112-	=112-	=112-	=112-	=112-	=112-	=112-	=112-
2D/	.	2D/	.	16F/	.	0r	.
.	.	.	.	16d\	.	.	.
.	.	.	.	16d\	.	.	.
.	.	.	.	16e\	.	.	.
.	.	.	.	16f\	.	.	.
.	.	.	.	16A/	.	.	.
.	.	.	.	16A/	.	.	.
.	.	.	.	16B\	.	.	.
2AA/	.	2AA/	.	16c\	.	.	.
.	.	.	.	16c\	.	.	.
.	.	.	.	16c\	.	.	.
.	.	.	.	16d\	.	.	.
.	.	.	.	16e\	.	.	.
.	.	.	.	16E/	.	.	.
.	.	.	.	16E/	.	.	.
.	.	.	.	16F/	.	.	.
=113-	=113-	=113-	=113-	=113-	=113-	=113-	=113-
1E	#:4#r	1E	#:4#r	8G#X/	.	.	.
.	.	.	.	16F/	.	.	.
.	.	.	.	16E/	.	.	.
.	.	.	.	32A/	.	.	.
.	.	.	.	32B\	.	.	.
.	.	.	.	32c\	.	.	.
.	.	.	.	32d\	.	.	.
!	!	!	!	!LO:TX:t=P:problem:rozmyty tusz	!	!	!
.	.	.	.	8e\	.	.	.
.	.	.	.	16r	.	.	.
.	.	.	.	16c\	.	.	.
.	.	.	.	16B\	.	.	.
.	.	.	.	16A/	.	.	.
.	.	.	.	4B\	.	.	.
*custos:A	*	*custos:A	*	*	*	*	*
!LO:LB:g=original	!	!LO:LB:g=original	!	!	!	!	!
=114-	=114-	=114-	=114-	=114-	=114-	=114-	=114-
!	!	!	!	!	!	!LO:TX:b:t=adagio.	!
4A\	.	4A\	.	4A/	.	4a/	.
4G\	.	4G\	.	4r	.	4b/	.
4F\	.	4F\	.	2r	.	4ccny\	.
!	!	!	!	!	!	!LO:TX:t=P:problem:kreska pseudotaktowa	!
4E\	6 #	4E\	6 #	.	.	4cc#X\	.
=115-	=115-	=115-	=115-	=115-	=115-	=115-	=115-
4D/	.	4D/	.	00r	.	4dd\	.
4C/	.	4C/	.	.	.	4ee\	.
4BB-X/	5	4BB-X/	5	.	.	4ff\	.
!LO:TX:t=P:problem:kreska pseudotaktowa	!	!LO:TX:t=P:problem:kreska pseudotaktowa	!	!	!	!	!
4AA/	6 #	4AA/	6 #	.	.	4ff#X\	.
=116-	=116-	=116-	=116-	=116-	=116-	=116-	=116-
4GG/	.	4GG/	.	.	.	8gg\	.
.	.	.	.	.	.	16dd\	.
.	.	.	.	.	.	16ccny\	.
4G\	.	4G\	.	.	.	16b/	.
.	.	.	.	.	.	32cc\	.
.	.	.	.	.	.	32dd\	.
.	.	.	.	.	.	16ee\	.
.	.	.	.	.	.	16dd\	.
4A\	.	4A\	.	.	.	16cc\	.
.	.	.	.	.	.	16ee\	.
.	.	.	.	.	.	16ffny\	.
.	.	.	.	.	.	16gg\	.
4AA/	.	4AA/	.	.	.	16aa\	.
.	.	.	.	.	.	16gg\	.
.	.	.	.	.	.	32aa\	.
.	.	.	.	.	.	32gg\	.
.	.	.	.	.	.	32ff\	.
.	.	.	.	.	.	32ee\	.
*	*	*	*	*	*	*custos:dd	*
!	!	!	!	!	!	!LO:LB:g=original	!
=117-	=117-	=117-	=117-	=117-	=117-	=117-	=117-
4BBny/	.	4BBny/	.	.	.	8dd\	.
.	.	.	.	.	.	16gg\	.
.	.	.	.	.	.	16ff\	.
4C/	.	4C/	.	.	.	16ee\	.
.	.	.	.	.	.	32ff\	.
.	.	.	.	.	.	32gg\	.
.	.	.	.	.	.	16aa\	.
.	.	.	.	.	.	16gg\	.
4D/	-	4D/	-	.	.	16ff\	.
.	.	.	.	.	.	16a/	.
.	.	.	.	.	.	16b/	.
.	.	.	.	.	.	16cc\	.
4FF#X/	.	4FF#X/	.	.	.	16dd\	.
.	.	.	.	.	.	16cc\	.
.	.	.	.	.	.	32dd\	.
.	.	.	.	.	.	32cc\	.
.	.	.	.	.	.	32b/	.
!	!	!	!	!	!	!LO:TX:t=P:problem:kreska pseudotaktowa	!
.	.	.	.	.	.	32a/	.
=118-	=118-	=118-	=118-	=118-	=118-	=118-	=118-
4GG/	.	4GG/	.	.	.	16g/	.
.	.	.	.	.	.	16dd\	.
.	.	.	.	.	.	16ee\	.
.	.	.	.	.	.	16ff\	.
4BB/	.	4BB/	.	.	.	16gg\	.
.	.	.	.	.	.	16ff\	.
.	.	.	.	.	.	32gg\	.
.	.	.	.	.	.	32ff\	.
.	.	.	.	.	.	32ee\	.
.	.	.	.	.	.	32dd\	.
4C/	.	4C/	.	.	.	16cc\	.
.	.	.	.	.	.	16g/	.
.	.	.	.	.	.	16a/	.
.	.	.	.	.	.	16b/	.
!LO:TX:t=P:problem:kreska pseudotaktowa	!	!LO:TX:t=P:problem:kreska pseudotaktowa	!	!	!	!	!
4AA/	.	4AA/	.	.	.	16cc\	.
.	.	.	.	.	.	16b/	.
.	.	.	.	.	.	32cc\	.
.	.	.	.	.	.	32b-X/	.
.	.	.	.	.	.	32a/	.
.	.	.	.	.	.	32g/	.
*	*	*	*	*	*	*custos:f	*
!	!	!	!	!	!	!LO:LB:g=original	!
=119-	=119-	=119-	=119-	=119-	=119-	=119-	=119-
4D/	.	4D/	.	00r	.	16fny/	.
.	.	.	.	.	.	16ff\	.
.	.	.	.	.	.	16gg\	.
.	.	.	.	.	.	16aa\	.
4BB-X/	.	4BB-X/	.	.	.	16bb-X\	.
.	.	.	.	.	.	16aa\	.
.	.	.	.	.	.	32bb-X\	.
.	.	.	.	.	.	32aa\	.
.	.	.	.	.	.	32gg\	.
.	.	.	.	.	.	32ff\	.
4C/	.	4C/	.	.	.	8ee\	.
.	.	.	.	.	.	16gg\	.
.	.	.	.	.	.	16ff\	.
4C#X/	6	4C#X/	6	.	.	8ee\	.
.	.	.	.	.	.	32ff\	.
.	.	.	.	.	.	32gg\	.
.	.	.	.	.	.	32aa\	.
!	!	!	!	!	!	!LO:TX:t=P:problem:kreska pseudotaktowa	!
.	.	.	.	.	.	32gg\	.
=120-	=120-	=120-	=120-	=120-	=120-	=120-	=120-
!LO:TX:t=P:problem:kreska pseudotaktowa	!	!LO:TX:t=P:problem:kreska pseudotaktowa	!	!	!	!	!
4D/	.	4D/	.	.	.	16ff\	.
.	.	.	.	.	.	16dd\	.
.	.	.	.	.	.	16ee\	.
.	.	.	.	.	.	16ff\	.
4BBny/	6	4BBny/	6	.	.	16gg\	.
.	.	.	.	.	.	16ff\	.
.	.	.	.	.	.	32gg\	.
.	.	.	.	.	.	32ff\	.
.	.	.	.	.	.	32ee\	.
.	.	.	.	.	.	32dd\	.
4Cny/	.	4Cny/	.	.	.	16cc\	.
.	.	.	.	.	.	16ee\	.
.	.	.	.	.	.	16ff\	.
.	.	.	.	.	.	16gg\	.
4AA/	.	4AA/	.	.	.	16aa\	.
.	.	.	.	.	.	16gg\	.
.	.	.	.	.	.	32aa\	.
.	.	.	.	.	.	32gg\	.
.	.	.	.	.	.	32ff\	.
!	!	!	!	!	!	!LO:TX:t=P:problem:kreska pseudotaktowa	!
.	.	.	.	.	.	32ee\	.
*	*	*	*	*	*	*custos:dd	*
!	!	!	!	!	!	!LO:LB:g=original	!
=121-	=121-	=121-	=121-	=121-	=121-	=121-	=121-
4BB-X/	.	4BB-X/	.	.	.	16dd\	.
.	.	.	.	.	.	16ff\	.
.	.	.	.	.	.	16gg\	.
.	.	.	.	.	.	16aa\	.
4GG/	.	4GG/	.	.	.	16bb-X\	.
.	.	.	.	.	.	16aa\	.
.	.	.	.	.	.	32bb-\	.
.	.	.	.	.	.	32aa\	.
.	.	.	.	.	.	32gg\	.
.	.	.	.	.	.	32ff\	.
4AA/	.	4AA/	.	.	.	16ee\	.
.	.	.	.	.	.	16dd\	.
.	.	.	.	.	.	32ee\	.
.	.	.	.	.	.	32dd\	.
.	.	.	.	.	.	32cc\	.
.	.	.	.	.	.	32bny/	.
4FFny/	.	4FFny/	.	.	.	16a/	.
.	.	.	.	.	.	32b/	.
.	.	.	.	.	.	32cc\	.
.	.	.	.	.	.	16dd\	.
!	!	!	!	!	!	!LO:TX:t=P:problem:kreska pseudotaktowa	!
.	.	.	.	.	.	16cc\	.
=122-	=122-	=122-	=122-	=122-	=122-	=122-	=122-
2GG/	-	2GG/	-	.	.	16b-X/	.
.	.	.	.	.	.	16gg\	.
.	.	.	.	.	.	16gg\	.
.	.	.	.	.	.	16aa\	.
.	.	.	.	.	.	16bb-X\	.
.	.	.	.	.	.	16dd\	.
.	.	.	.	.	.	16dd\	.
.	.	.	.	.	.	16ee\	.
2D/	.	2D/	.	.	.	16ff\	.
.	.	.	.	.	.	16ff\	.
.	.	.	.	.	.	16ff\	.
.	.	.	.	.	.	16gg\	.
.	.	.	.	.	.	16aa\	.
.	.	.	.	.	.	16a/	.
.	.	.	.	.	.	16a/	.
.	.	.	.	.	.	16b-/	.
*	*	*	*	*	*	*custos:cc#	*
!	!	!	!	!	!	!LO:LB:g=original	!
=123-	=123-	=123-	=123-	=123-	=123-	=123-	=123-
1AA	#:4#r	1AA	#:4#r	1r	.	8cc#X\	.
.	.	.	.	.	.	16bny/	.
.	.	.	.	.	.	16a/	.
.	.	.	.	.	.	32dd\	.
.	.	.	.	.	.	32ee\	.
.	.	.	.	.	.	32ff\	.
.	.	.	.	.	.	32gg\	.
.	.	.	.	.	.	8aa\	.
.	.	.	.	.	.	16r	.
.	.	.	.	.	.	16ff\	.
.	.	.	.	.	.	16ee\	.
.	.	.	.	.	.	16dd\	.
!	!	!	!	!	!	!LO:TX:t=P:problem:kreska pseudotaktowa	!
.	.	.	.	.	.	4ee\	.
*custos:D	*	*custos:D	*	*	*	*	*
!LO:LB:g=original	!	!LO:LB:g=original	!	!	!	!	!
=124-	=124-	=124-	=124-	=124-	=124-	=124-	=124-
4D/	.	4D/	.	4D/	.	8dd\	.
.	.	.	.	.	.	16dd\	.
.	.	.	.	.	.	16ccny\	.
4E\	.	4E\	.	4E/	.	16b/	.
.	.	.	.	.	.	32cc\	.
.	.	.	.	.	.	32dd\	.
.	.	.	.	.	.	16ee\	.
.	.	.	.	.	.	16dd\	.
4F\	.	4F\	.	4F/	.	16cc\	.
.	.	.	.	.	.	16a/	.
.	.	.	.	.	.	16b/	.
.	.	.	.	.	.	16cc\	.
4F#X\	.	4F#X\	.	4F#X/	.	16dd\	.
.	.	.	.	.	.	16cc\	.
.	.	.	.	.	.	32dd\	.
.	.	.	.	.	.	32cc\	.
.	.	.	.	.	.	32b/	.
.	.	.	.	.	.	32a/	.
*clefC4	*	*clefC4	*	*	*	*	*
=125-	=125-	=125-	=125-	=125-	=125-	=125-	=125-
4G/	.	4G/	.	4Gny/	.	8g/	.
.	.	.	.	.	.	16gg\	.
.	.	.	.	.	.	16ff\	.
4A/	.	4A/	.	4A/	.	16ee\	.
.	.	.	.	.	.	32ff\	.
.	.	.	.	.	.	32gg\	.
.	.	.	.	.	.	16aa\	.
.	.	.	.	.	.	16gg\	.
*	*	*	*	*	*	*custos:ff	*
!	!	!	!	!	!	!LO:LB:g=original	!
4B-X\	.	4B-X\	.	4B-X\	.	16ff\	.
.	.	.	.	.	.	16dd\	.
.	.	.	.	.	.	16ee\	.
.	.	.	.	.	.	16ff\	.
!LO:TX:t=P:problem:kreska pseudotaktowa	!	!LO:TX:t=P:problem:kreska pseudotaktowa	!	!	!	!	!
!LO:N:acc=#	!	!LO:N:acc=#	!	!LO:N:acc=#	!	!	!
4Bn\	.	4Bn\	.	4Bn\	.	16gg\	.
*	*	*	*	*	*	*custos:ff	*
!	!	!	!	!	!	!LO:LB:g=original	!
.	.	.	.	.	.	16ff\	.
.	.	.	.	.	.	32gg\	.
.	.	.	.	.	.	32ff\	.
.	.	.	.	.	.	32ee\	.
!	!	!	!	!	!	!LO:TX:t=P:problem:kreska pseudotaktowa	!
.	.	.	.	.	.	32dd\	.
!	!	!	!	!LO:PB:g=original	!	!	!
=126-	=126-	=126-	=126-	=126-	=126-	=126-	=126-
4c\	.	4c\	.	8c\	.	8cc\	.
.	.	.	.	16c\	.	8g/	.
.	.	.	.	16B\	.	.	.
8A/	.	8A/	.	16A/	.	4a/	.
.	.	.	.	32B\	.	.	.
.	.	.	.	32c\	.	.	.
8d\	.	8d\	.	16d\	.	.	.
.	.	.	.	16c\	.	.	.
2G/	-:#	2G/	-:#	16B-X\	.	4b-X/	.
.	.	.	.	16d\	.	.	.
.	.	.	.	16e\	.	.	.
.	.	.	.	16f\	.	.	.
.	.	.	.	16g\	.	4bny/	.
.	.	.	.	16f\	.	.	.
.	.	.	.	32g\	.	.	.
.	.	.	.	32f\	.	.	.
.	.	.	.	32e\	.	.	.
.	.	.	.	32d\	.	.	.
=127-	=127-	=127-	=127-	=127-	=127-	=127-	=127-
8c\	.	8c\	.	8c\	.	4cc\	.
8Fny/	.	8Fny/	.	16F/	.	.	.
.	.	.	.	16E/	.	.	.
8D/	.	8D/	.	16D/	.	4dd\	.
.	.	.	.	32E/	.	.	.
.	.	.	.	32F/	.	.	.
8G/	.	8G/	.	16G/	.	.	.
.	.	.	.	16F/	.	.	.
!LO:TX:t=P:problem:kreska pseudotaktowa	!	!LO:TX:t=P:problem:kreska pseudotaktowa	!	!	!	!	!
2C/	-:#	2C/	-:#	16E-X/	.	4ee-X\	.
.	.	.	.	16G/	.	.	.
.	.	.	.	16A/	.	.	.
.	.	.	.	16Bny\	.	.	.
!	!	!	!	!	!	!LO:TX:t=P:problem:kreska pseudotaktowa	!
.	.	.	.	16c\	.	4eeny\	.
.	.	.	.	16B\	.	.	.
.	.	.	.	32c\	.	.	.
.	.	.	.	32B\	.	.	.
.	.	.	.	32A/	.	.	.
!	!	!	!	!LO:TX:t=P:problem:kreska pseudotaktowa	!	!	!
.	.	.	.	32G/	.	.	.
=128-	=128-	=128-	=128-	=128-	=128-	=128-	=128-
4F/	.	4F/	.	4F/	.	8ff\	.
.	.	.	.	.	.	16cc\	.
.	.	.	.	.	.	16b/	.
4F#X/	.	4F#X/	.	4r	.	16a/	.
.	.	.	.	.	.	32b/	.
.	.	.	.	.	.	32cc\	.
.	.	.	.	.	.	16dd\	.
.	.	.	.	.	.	16cc\	.
4G/	-	4G/	-	2r	.	16b-X/	.
.	.	.	.	.	.	16g/	.
.	.	.	.	.	.	16a/	.
.	.	.	.	.	.	16b-/	.
*	*	*	*	*	*	*custos:cc	*
!	!	!	!	!	!	!LO:LB:g=original	!
4E/	.	4E/	.	.	.	16cc\	.
.	.	.	.	.	.	16b-X/	.
.	.	.	.	.	.	32cc\	.
.	.	.	.	.	.	32b-/	.
.	.	.	.	.	.	32a/	.
.	.	.	.	.	.	32g/	.
=129-	=129-	=129-	=129-	=129-	=129-	=129-	=129-
4Fny/	.	4Fny/	.	1r	.	8f/	.
.	.	.	.	.	.	16aa\	.
.	.	.	.	.	.	16gg\	.
*clefF4	*	*clefF4	*	*	*	*	*
4BB-X/	.	4BB-X/	.	.	.	16ff\	.
.	.	.	.	.	.	32gg\	.
.	.	.	.	.	.	32aa\	.
.	.	.	.	.	.	16bb-X\	.
.	.	.	.	.	.	16aa\	.
4C/	.	4C/	.	.	.	16gg\	.
.	.	.	.	.	.	16ee\	.
.	.	.	.	.	.	16ff\	.
.	.	.	.	.	.	16gg\	.
4F\	.	4F\	.	.	.	16aa\	.
.	.	.	.	.	.	16gg\	.
.	.	.	.	.	.	32aa\	.
.	.	.	.	.	.	32gg\	.
.	.	.	.	.	.	32ff\	.
.	.	.	.	.	.	32ee\	.
*	*	*	*	*custos:G	*	*	*
!	!	!	!	!LO:LB:g=original	!	!	!
=130-	=130-	=130-	=130-	=130-	=130-	=130-	=130-
4G\	.	4G\	.	8r	.	4dd\	.
.	.	.	.	16G/	.	.	.
.	.	.	.	16F/	.	.	.
4C/	.	4C/	.	16Eny/	.	4ee\	.
.	.	.	.	32F/	.	.	.
.	.	.	.	32G/	.	.	.
.	.	.	.	16A/	.	.	.
.	.	.	.	16G/	.	.	.
2D/	-:#	2D/	-:#	16F/	.	4ff\	.
.	.	.	.	16A/	.	.	.
.	.	.	.	16B\	.	.	.
.	.	.	.	16c\	.	.	.
.	.	.	.	16d\	.	4ff#X\	.
.	.	.	.	16c\	.	.	.
.	.	.	.	32d\	.	.	.
.	.	.	.	32c\	.	.	.
.	.	.	.	32B\	.	.	.
!	!	!	!	!LO:TX:t=P:problem:kreska pseudotaktowa	!	!	!
.	.	.	.	32A/	.	.	.
=131-	=131-	=131-	=131-	=131-	=131-	=131-	=131-
8G\	.	8G\	.	8G/	.	4gg\	.
8c\	.	8c\	.	16c\	.	.	.
.	.	.	.	16B\	.	.	.
8F\	.	8F\	.	16A/	.	4aa\	.
.	.	.	.	32B\	.	.	.
.	.	.	.	32c\	.	.	.
8D/	.	8D/	.	16d\	.	.	.
.	.	.	.	16c\	.	.	.
2GG/	-:#	2GG/	-:#	16B-X\	.	4bb-X\	.
.	.	.	.	16D/	.	.	.
.	.	.	.	16E/	.	.	.
.	.	.	.	16F/	.	.	.
.	.	.	.	16G/	.	4bbny\	.
.	.	.	.	16F/	.	.	.
.	.	.	.	32G/	.	.	.
.	.	.	.	32F/	.	.	.
.	.	.	.	32E/	.	.	.
!	!	!	!	!LO:TX:t=P:problem:kreska pseudotaktowa	!	!	!
.	.	.	.	32D/	.	.	.
*custos:AA	*	*custos:AA	*	*	*	*	*
!LO:LB:g=original	!	!LO:LB:g=original	!	!	!	!	!
=132-	=132-	=132-	=132-	=132-	=132-	=132-	=132-
4AA/	.	4AA/	.	8C/	.	4ccc\	.
.	.	.	.	16F/	.	.	.
.	.	.	.	16E/	.	.	.
*	*	*	*	*custos:D	*	*	*
!	!	!	!	!LO:LB:g=original	!	!	!
4BBny/	6	4BBny/	6	16D/	.	4r	.
.	.	.	.	32E/	.	.	.
.	.	.	.	32F/	.	.	.
.	.	.	.	16G/	.	.	.
.	.	.	.	16F/	.	.	.
4C/	.	4C/	.	16E/	.	2r	.
.	.	.	.	16G/	.	.	.
.	.	.	.	16A/	.	.	.
.	.	.	.	16Bny\	.	.	.
4AA/	.	4AA/	.	16c\	.	.	.
.	.	.	.	16B\	.	.	.
.	.	.	.	32c\	.	.	.
.	.	.	.	32B\	.	.	.
.	.	.	.	32A/	.	.	.
!	!	!	!	!LO:TX:t=P:problem:kreska pseudotaktowa	!	!	!
.	.	.	.	32G/	.	.	.
=133-	=133-	=133-	=133-	=133-	=133-	=133-	=133-
4D/	-	4D/	-	8F/	.	1r	.
.	.	.	.	16f\	.	.	.
.	.	.	.	16e\	.	.	.
4BB/	6	4BB/	6	16d\	.	.	.
.	.	.	.	32e\	.	.	.
.	.	.	.	32f\	.	.	.
.	.	.	.	16g\	.	.	.
.	.	.	.	16f\	.	.	.
4C/	.	4C/	.	8e\	.	.	.
.	.	.	.	16c\	.	.	.
.	.	.	.	16B\	.	.	.
!LO:TX:t=P:problem:kreska pseudotaktowa	!	!LO:TX:t=P:problem:kreska pseudotaktowa	!	!	!	!	!
4D/	.	4D/	.	16A/	.	.	.
.	.	.	.	32B\	.	.	.
.	.	.	.	32c\	.	.	.
.	.	.	.	16d\	.	.	.
!	!	!	!	!LO:TX:t=P:problem:kreska pseudotaktowa	!	!	!
.	.	.	.	16c\	.	.	.
*	*	*	*	*	*	*custos:gg	*
!	!	!	!	!	!	!LO:LB:g=original	!
=134-	=134-	=134-	=134-	=134-	=134-	=134-	=134-
4GG/	.	4GG/	.	8B\	.	8r	.
*	*	*	*	*clefF4	*	*	*
.	.	.	.	8GG/	.	16gg\	.
.	.	.	.	.	.	16ffny\	.
4AA/	.	4AA/	.	4AA/	.	16ee\	.
.	.	.	.	.	.	32ff\	.
.	.	.	.	.	.	32gg\	.
.	.	.	.	.	.	16aa\	.
.	.	.	.	.	.	16gg\	.
4BB-X/	.	4BB-X/	.	4BB-X/	.	16ff\	.
.	.	.	.	.	.	16dd\	.
.	.	.	.	.	.	16ee\	.
.	.	.	.	.	.	16ff\	.
!	!	!	!	!LO:TX:t=P:problem:kreska pseudotaktowa	!	!	!
!LO:N:acc=#	!	!LO:N:acc=#	!	!LO:N:acc=#	!	!	!
4BBn/	.	4BBn/	.	4BBn/	.	16gg\	.
.	.	.	.	.	.	16ff\	.
.	.	.	.	.	.	32gg\	.
.	.	.	.	.	.	32ff\	.
.	.	.	.	.	.	32ee\	.
!	!	!	!	!	!	!LO:TX:t=P:problem:kreska pseudotaktowa	!
.	.	.	.	.	.	32dd\	.
=135-	=135-	=135-	=135-	=135-	=135-	=135-	=135-
4C/	.	4C/	.	4C/	.	8cc\	ff
.	.	.	.	.	.	16cc\	.
.	.	.	.	.	.	16bny/	.
4D/	.	4D/	.	4D/	.	16a/	.
.	.	.	.	.	.	16b/	.
.	.	.	.	.	.	32cc\	.
.	.	.	.	.	.	32dd\	.
.	.	.	.	.	.	16cc\	.
*	*	*	*	*custos:E	*	*	*
!	!	!	!	!LO:LB:g=original	!	!	!
4E-X\	.	4E-X\	.	4E-X\	.	16b-X/	.
.	.	.	.	.	.	16g/	.
.	.	.	.	.	.	16a/	.
.	.	.	.	.	.	16b-/	.
!LO:N:acc=#	!	!LO:N:acc=#	!	!	!	!	!
4En\	.	4En\	.	4Eny\	.	16cc\	.
.	.	.	.	.	.	16b-X/	.
.	.	.	.	.	.	32cc\	.
.	.	.	.	.	.	32b-/	.
.	.	.	.	.	.	32a/	.
!	!	!	!	!	!	!LO:TX:t=P:problem:kreska pseudotaktowa	!
.	.	.	.	.	.	32g/	.
=136-	=136-	=136-	=136-	=136-	=136-	=136-	=136-
4F\	.	4F\	.	8F\	.	4f/	.
.	.	.	.	16F\	.	.	.
.	.	.	.	16E\	.	.	.
8D/	.	8D/	.	16D/	.	4r	.
.	.	.	.	32E\	.	.	.
.	.	.	.	32F\	.	.	.
8G\	.	8G\	.	16G\	.	.	.
.	.	.	.	16F\	.	.	.
4C/	.	4C/	.	16E\	.	2r	.
.	.	.	.	16G\	.	.	.
.	.	.	.	16A\	.	.	.
.	.	.	.	16B\	.	.	.
!LO:TX:t=P:problem:kreska pseudotaktowa	!	!LO:TX:t=P:problem:kreska pseudotaktowa	!	!	!	!	!
4AA/	.	4AA/	.	16c\	.	.	.
.	.	.	.	16B\	.	.	.
.	.	.	.	32c\	.	.	.
.	.	.	.	32B\	.	.	.
.	.	.	.	32A\	.	.	.
!	!	!	!	!LO:TX:t=P:problem:kreska pseudotaktowa	!	!	!
.	.	.	.	32G\	.	.	.
*	*	*	*	*	*	*custos:dd	*
!	!	!	!	!	!	!LO:PB:g=original	!
=137-	=137-	=137-	=137-	=137-	=137-	=137-	=137-
4D/	.	4D/	.	16F\	.	2r	.
.	.	.	.	16A\	.	.	.
.	.	.	.	16B\	.	.	.
.	.	.	.	16c\	.	.	.
4F#X\	.	4F#X\	.	16d\	.	.	.
.	.	.	.	16c\	.	.	.
.	.	.	.	32d\	.	.	.
.	.	.	.	32c\	.	.	.
.	.	.	.	32B\	.	.	.
.	.	.	.	32A\	.	.	.
4.G\	.	4.G\	.	4G\	.	8r	.
.	.	.	.	.	.	16dd\	.
.	.	.	.	.	.	16cc\	.
!	!	!	!	!LO:TX:t=P:problem:kreska pseudotaktowa	!	!	!
.	.	.	.	4r	.	16bny/	.
.	.	.	.	.	.	32cc\	.
.	.	.	.	.	.	32dd\	.
!LO:TX:t=P:problem:kreska pseudotaktowa	!	!LO:TX:t=P:problem:kreska pseudotaktowa	!	!	!	!	!
8E\	.	8E\	.	.	.	16ee\	.
!	!	!	!	!	!	!LO:TX:t=P:problem:kreska pseudotaktowa	!
.	.	.	.	.	.	16dd\	.
=138-	=138-	=138-	=138-	=138-	=138-	=138-	=138-
4A\	.	4A\	.	1r	.	16cc\	.
.	.	.	.	.	.	16ee\	.
.	.	.	.	.	.	16ff\	.
.	.	.	.	.	.	16gg\	.
4Fny\	.	4Fny\	.	.	.	16aa\	.
.	.	.	.	.	.	16gg\	.
.	.	.	.	.	.	32aa\	.
.	.	.	.	.	.	32gg\	.
.	.	.	.	.	.	32ff\	.
.	.	.	.	.	.	32ee\	.
4G\	.	4G\	.	.	.	16dd\	.
.	.	.	.	.	.	16dd\	.
.	.	.	.	.	.	16ee\	.
.	.	.	.	.	.	16ff\	.
4E\	.	4E\	.	.	.	16gg\	.
.	.	.	.	.	.	16ff\	.
.	.	.	.	.	.	32gg\	.
.	.	.	.	.	.	32ff\	.
.	.	.	.	.	.	32ee\	.
!	!	!	!	!	!	!LO:TX:t=P:problem:kreska pseudotaktowa	!
.	.	.	.	.	.	32dd\	.
=139-	=139-	=139-	=139-	=139-	=139-	=139-	=139-
4AA/	.	4AA/	.	4AA/	.	8cc\	.
.	.	.	.	.	.	16aa\	.
.	.	.	.	.	.	16gg\	.
4BB/	7:6	4BB/	7:6	4BB/	.	16ff#X\	.
.	.	.	.	.	.	32gg\	.
.	.	.	.	.	.	32aa\	.
.	.	.	.	.	.	16bb\	.
.	.	.	.	.	.	16aa\	.
4C/	.	4C/	.	4C/	.	16gg\	.
.	.	.	.	.	.	16ee\	.
.	.	.	.	.	.	16ff#\	.
.	.	.	.	.	.	16gg\	.
*	*	*	*	*	*	*custos:aa	*
!LO:TX:t=P:problem:kreska pseudotaktowa	!	!LO:TX:t=P:problem:kreska pseudotaktowa	!	!LO:LB:g=original	!	!	!
4C#X/	.	4C#X/	.	4C#X/	.	16aa\	.
.	.	.	.	.	.	16gg\	.
.	.	.	.	.	.	32aa\	.
.	.	.	.	.	.	32gg\	.
.	.	.	.	.	.	32ff#\	.
!	!	!	!	!	!	!LO:TX:t=P:problem:kreska pseudotaktowa	!
.	.	.	.	.	.	32ee\	.
=140-	=140-	=140-	=140-	=140-	=140-	=140-	=140-
4D/	.	4D/	.	4D/	.	8dd\	.
.	.	.	.	.	.	16dd\	.
.	.	.	.	.	.	16cc\	.
4E\	.	4E\	.	4E\	.	16b/	.
.	.	.	.	.	.	32cc\	.
.	.	.	.	.	.	32dd\	.
.	.	.	.	.	.	16ee\	.
.	.	.	.	.	.	16dd\	.
*custos:F	*	*custos:F	*	*custos:F	*	*	*
!LO:LB:g=original	!	!LO:LB:g=original	!	!LO:LB:g=original	!	!	!
4F\	.	4F\	.	4F\	.	16cc\	.
.	.	.	.	.	.	16a/	.
.	.	.	.	.	.	16b/	.
.	.	.	.	.	.	16cc\	.
!	!	!	!	!LO:TX:t=P:problem:kreska pseudotaktowa	!	!	!
4F#X\	.	4F#X\	.	4F#X\	.	16dd\	.
.	.	.	.	.	.	16cc\	.
.	.	.	.	.	.	32dd\	.
.	.	.	.	.	.	32cc\	.
.	.	.	.	.	.	32b/	.
.	.	.	.	.	.	32a/	.
=141-	=141-	=141-	=141-	=141-	=141-	=141-	=141-
4G\	.	4G\	.	8G\	.	8g/	.
.	.	.	.	16G\	.	16b/	.
.	.	.	.	16Fny\	.	16a/	.
8E\	.	8E\	.	16E\	.	16g/	.
.	.	.	.	32F\	.	32a/	.
.	.	.	.	32G\	.	32b/	.
8Cny/	6	8Cny/	6	16A\	.	16cc\	.
.	.	.	.	16G\	.	16b/	.
4D/	-	4D/	-	16F\	.	4a/	.
.	.	.	.	16D/	.	.	.
.	.	.	.	16E\	.	.	.
.	.	.	.	16F\	.	.	.
!LO:TX:t=P:problem:kreska pseudotaktowa	!	!LO:TX:t=P:problem:kreska pseudotaktowa	!	!	!	!LO:TX:t=P:problem:kreska pseudotaktowa	!
4BB/	.	4BB/	.	16G\	.	4r	.
.	.	.	.	16F\	.	.	.
.	.	.	.	32G\	.	.	.
.	.	.	.	32F\	.	.	.
.	.	.	.	32E\	.	.	.
!	!	!	!	!LO:TX:t=P:problem:kreska pseudotaktowa	!	!	!
.	.	.	.	32D/	.	.	.
=142-	=142-	=142-	=142-	=142-	=142-	=142-	=142-
8C/	.	8C/	.	8Cny/	.	4e/	.
*	*	*	*	*clefC4	*	*	*
8c\	.	8c\	.	16c\	.	.	.
.	.	.	.	16B\	.	.	.
8A\	6	8A\	6	16A/	.	4f/	.
.	.	.	.	32B\	.	.	.
.	.	.	.	32c\	.	.	.
8d\	-	8d\	-	16d\	.	.	.
.	.	.	.	16c\	.	.	.
4G\	.	4G\	.	16B\	.	4g/	.
.	.	.	.	16B\	.	.	.
.	.	.	.	16c\	.	.	.
.	.	.	.	16d\	.	.	.
!	!	!	!	!	!	!LO:TX:t=P:problem:kreska pseudotaktowa	!
4E\	.	4E\	.	16e\	.	4g#X/	.
.	.	.	.	16d\	.	.	.
.	.	.	.	32e\	.	.	.
.	.	.	.	32d\	.	.	.
.	.	.	.	32c\	.	.	.
.	.	.	.	32B\	.	.	.
*	*	*	*	*custos:A	*	*	*
!	!	!	!	!LO:LB:g=original	!	!	!
=143-	=143-	=143-	=143-	=143-	=143-	=143-	=143-
4Fny\	.	4Fny\	.	8A/	.	4a/	.
.	.	.	.	16F/	.	.	.
.	.	.	.	16E/	.	.	.
8D/	.	8D/	.	16D/	.	4b/	.
.	.	.	.	32E/	.	.	.
.	.	.	.	32F/	.	.	.
8G\	.	8G\	.	16G/	.	.	.
.	.	.	.	16F/	.	.	.
*	*	*	*	*	*	*custos:cc	*
!	!	!	!	!	!	!LO:LB:g=original	!
4C/	.	4C/	.	16E/	.	4cc\	.
.	.	.	.	16E/	.	.	.
.	.	.	.	16F/	.	.	.
.	.	.	.	16G/	.	.	.
!LO:TX:t=P:problem:kreska pseudotaktowa	!	!LO:TX:t=P:problem:kreska pseudotaktowa	!	!	!	!LO:TX:t=P:problem:kreska pseudotaktowa	!
4AA/	#	4AA/	#	16A/	.	4cc#X\	.
.	.	.	.	16G/	.	.	.
.	.	.	.	32A/	.	.	.
.	.	.	.	32G/	.	.	.
.	.	.	.	32F/	.	.	.
!	!	!	!	!LO:TX:t=P:problem:kreska pseudotaktowa	!	!	!
.	.	.	.	32E/	.	.	.
=144-	=144-	=144-	=144-	=144-	=144-	=144-	=144-
4D/	.	4D/	.	4D/	.	8dd\	.
.	.	.	.	.	.	16dd\	.
.	.	.	.	.	.	16ccny\	.
4E\	5	4E\	5	4r	.	16b/	.
.	.	.	.	.	.	32cc\	.
.	.	.	.	.	.	32dd\	.
.	.	.	.	.	.	16ee\	.
.	.	.	.	.	.	16dd\	.
4F\	.	4F\	.	2r	.	8cc\	.
.	.	.	.	.	.	16ffny\	.
.	.	.	.	.	.	16ee\	.
4G\	.	4G\	.	.	.	16dd\	.
.	.	.	.	.	.	32ee\	.
.	.	.	.	.	.	32ff\	.
.	.	.	.	.	.	16gg\	.
!	!	!	!	!	!	!LO:TX:t=P:problem:kreska pseudotaktowa	!
.	.	.	.	.	.	16ff\	.
=145-	=145-	=145-	=145-	=145-	=145-	=145-	=145-
4C/	.	4C/	.	16r	.	16ee\	.
.	.	.	.	16E/	.	16gny/	.
.	.	.	.	16F/	.	16a/	.
.	.	.	.	16G/	.	16b/	.
4AA/	.	4AA/	.	16A/	.	16cc\	.
.	.	.	.	16G/	.	16b/	.
.	.	.	.	32A/	.	32cc\	.
.	.	.	.	32G/	.	32b/	.
.	.	.	.	32F/	.	32a/	.
.	.	.	.	32E/	.	32g/	.
2D/	-	2D/	-	16D/	.	16f/	.
.	.	.	.	16A/	.	16cc\	.
.	.	.	.	16B\	.	16dd\	.
.	.	.	.	16c\	.	16ee\	.
.	.	.	.	16d\	.	16ff\	.
.	.	.	.	16c\	.	16ee\	.
.	.	.	.	32d\	.	32ff\	.
.	.	.	.	32c\	.	32ee\	.
.	.	.	.	32B-X\	.	32dd\	.
.	.	.	.	32A/	.	32cc\	.
*	*	*	*	*	*	*custos:b-	*
!	!	!	!	!	!	!LO:LB:g=original	!
=146-	=146-	=146-	=146-	=146-	=146-	=146-	=146-
4G\	-	4G\	-	4G/	.	16b-X/	.
.	.	.	.	.	.	16dd\	.
.	.	.	.	.	.	16ee\	.
.	.	.	.	.	.	16ff\	.
4E\	.	4E\	.	4r	.	16gg\	.
.	.	.	.	.	.	16ff\	.
.	.	.	.	.	.	32gg\	.
.	.	.	.	.	.	32ff\	.
.	.	.	.	.	.	32ee\	.
.	.	.	.	.	.	32dd\	.
4A\	#	4A\	#	2r	.	16cc#X\	.
.	.	.	.	.	.	16ee\	.
.	.	.	.	.	.	16ee\	.
.	.	.	.	.	.	16ff\	.
4G\	.	4G\	.	.	.	16gg\	.
.	.	.	.	.	.	16b-/	.
.	.	.	.	.	.	16b-/	.
!	!	!	!	!	!	!LO:TX:t=P:problem:kreska pseudotaktowa	!
.	.	.	.	.	.	16cc#\	.
*	*	*	*	*custos:A	*	*	*
!	!	!	!	!LO:LB:g=original	!	!	!
=147-	=147-	=147-	=147-	=147-	=147-	=147-	=147-
4D/	.	4D/	.	16r	.	4dd\	.
.	.	.	.	16A/	.	.	.
.	.	.	.	16A/	.	.	.
.	.	.	.	16Bny\	.	.	.
4AA/	.	4AA/	.	16c\	.	4r	.
.	.	.	.	16E/	.	.	.
.	.	.	.	16E/	.	.	.
.	.	.	.	16F/	.	.	.
4GG/	-	4GG/	-	16G/	.	16r	.
.	.	.	.	16B-X\	.	16dd\	.
.	.	.	.	16B-\	.	16dd\	.
.	.	.	.	16c\	.	16ee\	.
4D/	#	4D/	#	16d\	.	16ff\	.
.	.	.	.	16F/	.	16a/	.
.	.	.	.	16F/	.	16a/	.
!	!	!	!	!LO:TX:t=P:problem:kreska pseudotaktowa	!	!	!
.	.	.	.	16G/	.	16bny/	.
=148-	=148-	=148-	=148-	=148-	=148-	=148-	=148-
1AA	4	1AA	4	16A/	.	8cc#X\	.
.	.	.	.	16F/	.	.	.
.	.	.	.	16D/	.	16b/	.
.	.	.	.	16A/	.	16a/	.
.	.	.	.	16F/	.	2dd\	.
.	.	.	.	16D/	.	.	.
.	.	.	.	16C/	.	.	.
.	.	.	.	16BB/	.	.	.
*	*	*	*	*clefF4	*	*	*
.	.	.	.	16AA/	.	.	.
.	.	.	.	16FF/	.	.	.
.	.	.	.	16EE/	.	.	.
.	.	.	.	16DD/	.	.	.
.	.	.	.	4AA/	.	4cc#X\	.
=149-	=149-	=149-	=149-	=149-	=149-	=149-	=149-
!LO:TX:t=P:problem:kreska pseudotaktowa	!	!LO:TX:t=P:problem:kreska pseudotaktowa	!	!	!	!	!
1D	#	1D	#	1DD	.	4dd\	.
.	.	.	.	.	.	4r	.
!	!	!	!	!	!	!LO:TX:b:t=adagio.	!
.	.	.	.	.	.	4d/	.
.	.	.	.	.	.	4d/	.
*	*	*	*	*clefC4	*	*	*
=150-	=150-	=150-	=150-	=150-	=150-	=150-	=150-
!LO:TX:b:t=adagio.	!	!LO:TX:b:t=adagio.	!	!LO:TX:b:t=adagio.	!	!	!
1d	.	1d	.	4r	.	4d/	.
.	.	.	.	4d\	.	2d/	.
.	.	.	.	4.d\	.	.	.
*	*	*	*	*	*	*custos:f	*
!	!	!	!	!	!	!LO:LB:g=original	!
!	!	!	!	!	!	!LO:TX:t=P:problem:kreska pseudotaktowa	!
.	.	.	.	.	.	4.f/	.
.	.	.	.	8c\	.	.	.
=151-	=151-	=151-	=151-	=151-	=151-	=151-	=151-
2B-X\	.	2B-X\	.	2B-X\	.	.	.
.	.	.	.	.	.	8f/	.
.	.	.	.	.	.	4e/	.
2A\	6	2A\	6	8r	.	2f/	.
.	.	.	.	8A/	.	.	.
.	.	.	.	8A/	.	.	.
.	.	.	.	8G/	.	.	.
*	*	*	*	*custos:G	*	*	*
!	!	!	!	!LO:LB:g=original	!	!	!
=152-	=152-	=152-	=152-	=152-	=152-	=152-	=152-
2G\	- 7:6	2G\	- 7:6	2G/	.	4r	.
.	.	.	.	.	.	4.ccny\	.
2F\	.	2F\	.	2F/	.	.	.
.	.	.	.	.	.	8cc\	.
!	!	!	!	!	!	!LO:TX:t=P:problem:kreska pseudotaktowa	!
.	.	.	.	.	.	4b/	.
*custos:E	*	*custos:E	*	*	*	*	*
!LO:LB:g=original	!	!LO:LB:g=original	!	!	!	!	!
=153-	=153-	=153-	=153-	=153-	=153-	=153-	=153-
2E\	6	2E\	6	8r	.	2cc\	.
.	.	.	.	8E/	.	.	.
.	.	.	.	8E/	.	.	.
.	.	.	.	8D/	.	.	.
!LO:TX:t=P:problem:kreska pseudotaktowa	!	!LO:TX:t=P:problem:kreska pseudotaktowa	!	!	!	!	!
2D/	7:6	2D/	7:6	2D/	.	4r	.
.	.	.	.	.	.	4.gg\	.
*	*	*	*	*clefF4	*	*	*
=154-	=154-	=154-	=154-	=154-	=154-	=154-	=154-
2C/	.	2C/	.	2C/	.	.	.
.	.	.	.	.	.	8gg\	.
.	.	.	.	.	.	4ff#X\	.
2BB-X/	6	2BB-X/	6	8r	.	2gg\	.
.	.	.	.	8BB-X/	.	.	.
.	.	.	.	8BB-/	.	.	.
.	.	.	.	8AA/	.	.	.
=155-	=155-	=155-	=155-	=155-	=155-	=155-	=155-
2AA/	7:6 #	2AA/	7:6 #	2AA/	.	4r	.
.	.	.	.	.	.	4.ddd\	.
2GG/	.	2GG/	.	2GG/	.	.	.
.	.	.	.	.	.	8ddd\	.
.	.	.	.	.	.	4ccc#X\	.
=156-	=156-	=156-	=156-	=156-	=156-	=156-	=156-
!	!	!	!	!	!	!LO:N:vis=0	!
2FF/	6	2FF/	6	8r	.	0.ddd;<	.
.	.	.	.	8FF/	.	.	.
.	.	.	.	8FF/	.	.	.
.	.	.	.	8EE/	.	.	.
2EEny/	7:6	2EEny/	7:6	2EE/	.	.	.
=157-	=157-	=157-	=157-	=157-	=157-	=157-	=157-
0DD;	#	0DD;	#	0DD;	.	.	.
==	==	==	==	==	==	==	==
*-	*-	*-	*-	*-	*-	*-	*-
!!!system-decoration: [(s1,s2)]s3,s4
!!!RDF**kern: > = above
!!!RDF**kern: < = below
!!!ENC: Andrzej Gręziak
!!!END: 2022-11-09
!!!ENC: Natalia Wrzos
!!!END: 2022-11-28
!!!YEC: Copyright 2022 Narodowy Instytut Fryderyka Chopina (https://polishscores.org)
!!!YEM: License CC-BY-4.0 (https://creativecommons.org/licenses/by/4.0)
